!!!!SEGMENT: pl-cz--iii-700_volckmer-augustin--salve-regina.krn
!!!cenid: 18xx:1148
!!!COM: Volckmer, Augustin
!!!COM-rismID: pe30020656
!!!CDT: 1755-~1820
!!!CNT:
!!!OTL: Salve Regina
!!!PDT:
!!!AGN: Sacred
!!!SMS-siglum: PL-CZ
!!!SMS-shelfmark: III-700
!!!SMS-shelfwork: W
!!!SMS-variant:
!!!SMS-altvar:
!!!NIFC-rismSourceID: 300001405
!!!NIFC-rismChildID: 300001405
!!!NIFC-islandoraID: pl-cz:40658
!!!URL-pdf-islandora: https://repozytorium.nifc.pl/islandora/object/pl-cz%3A40658/datastream/PDF/view
!!!URL-scan:
!!!ONB-nifc:
!!!AIN: 1 alto 1 bass 2 cor 2 oboe 1 organ 1 soprn 1 tenor 1 viola 2 violn
!!!key: A
**kern	**fba	**dynam	**kern	**dynam	**kern	**dynam	**kern	**dynam	**kern	**text	**kern	**text	**kern	**text	**kern	**text	**dynam	**kern	**kern	**kern	**kern
*	*	*	*group4	*	*group4	*	*group4	*	*group3	*	*group3	*	*group3	*	*group3	*	*	*group2	*group2	*group1	*group1
*part12	*part12	*part12	*part11	*part11	*part10	*part10	*part9	*part9	*part8	*part8	*part7	*part7	*part6	*part6	*part5	*part5	*part5	*part4	*part3	*part2	*part1
*staff12	*	*	*staff11	*	*staff10	*	*staff9	*	*staff8	*staff8	*staff7	*staff7	*staff6	*staff6	*staff5	*staff5	*	*staff4	*staff3	*staff2	*staff1
*I"Organo.	*	*	*I"Viola Obl(iggato):	*	*I"Violino Secondo	*	*I"Violino Primo	*	*I"Baſso	*	*I"Tenore.	*	*I"Alto.	*	*I"Canto	*	*	*I"Corno Secondo in A.	*I"Cornu Primo in A.	*I"Oboe Secondo	*I"Oboe Primo.
*I'org	*	*	*I'vla	*	*I'vl 2	*	*I'vl 1	*	*I'B	*	*I'T	*	*I'A	*	*I'S	*	*	*I'cor 2 in A	*I'cor 1 in A	*I'ob 2	*I'ob 1
*Iorgan	*	*	*Iviola	*	*Ivioln	*	*Ivioln	*	*Ibass	*	*Itenor	*	*Ialto	*	*Isoprn	*	*	*Icor	*Icor	*Ioboe	*Ioboe
*ICklav	*	*	*ICstr	*	*ICstr	*	*ICstr	*	*ICvox	*	*ICvox	*	*ICvox	*	*ICvox	*	*	*ICbras	*ICbras	*ICww	*ICww
*clefF4	*	*	*clefC3	*	*clefG2	*	*clefG2	*	*clefF4	*	*clefC4	*	*clefC3	*	*clefC1	*	*	*clefG2	*clefG2	*clefG2	*clefG2
*	*	*	*	*	*	*	*	*	*	*	*	*	*	*	*	*	*	*ITrd2c3	*ITrd2c3	*	*
*k[f#g#c#]	*	*	*k[c#f#g#]	*	*k[f#g#c#]	*	*k[f#g#c#]	*	*k[f#g#c#]	*	*k[c#f#g#]	*	*k[f#c#g#]	*	*k[c#f#g#]	*	*	*k[f#c#g#]	*k[f#c#g#]	*k[f#g#c#]	*k[f#g#c#]
*A:	*	*	*A:	*	*A:	*	*A:	*	*A:	*	*A:	*	*A:	*	*A:	*	*	*A:	*A:	*A:	*A:
*M2/4	*	*	*M2/4	*	*M2/4	*	*M2/4	*	*M2/4	*	*M2/4	*	*M2/4	*	*M2/4	*	*	*M2/4	*M2/4	*M2/4	*M2/4
=1	=1	=1	=1	=1	=1	=1	=1	=1	=1	=1	=1	=1	=1	=1	=1	=1	=1	=1	=1	=1	=1
!LO:TX:t=P:problem=mixed beam	!	!	!	!	!	!	!	!	!LO:TX:a:t=24	!	!LO:TX:a:t=24	!	!LO:TX:a:t=24	!	!LO:TX:a:t=6.	!	!	!LO:TX:a:t=1	!LO:TX:a:t=1	!LO:TX:a:t=2	!LO:TX:a:t=2
!LO:TX:a:Bi:t=Andante.	!	!	!LO:TX:a:Bi:t=Andante	!	!LO:TX:a:Bi:t=Andante	!	!LO:TX:a:Bi:t=Andante.	!	!LO:TX:a:Bi:t=Andante	!	!LO:TX:a:Bi:t=Andante	!	!LO:TX:a:Bi:t=Andante.	!	!LO:TX:a:Bi:t=Andante	!	!	!LO:TX:a:Bi:t=andante.	!LO:TX:a:Bi:t=Andante	!LO:TX:a:Bi:t=Andante	!LO:TX:a:Bi:t=Andante.
8A\L	.	.	4a 4e 4A\	.	4cc# 4e 4A/	.	4aa 4a\	.	0r	.	0r	.	0r	.	0r	.	.	2r	2r	2r	2r
8AA/J	.	.	.	.	.	.	.	.	.	.	.	.	.	.	.	.	.	.	.	.	.
4r	.	.	4r	.	(16A/LL	.	(16cc#\LL	.	.	.	.	.	.	.	.	.	.	.	.	.	.
.	.	.	.	.	16c#/)	.	16a\)	.	.	.	.	.	.	.	.	.	.	.	.	.	.
.	.	.	.	.	(16B/	.	(16dd\	.	.	.	.	.	.	.	.	.	.	.	.	.	.
.	.	.	.	.	16d/JJ)	.	16b\JJ)	.	.	.	.	.	.	.	.	.	.	.	.	.	.
=2	=2	=2	=2	=2	=2	=2	=2	=2	=2	=2	=2	=2	=2	=2	=2	=2	=2	=2	=2	=2	=2
!	!	!	!	!	!LO:TX:t=P:problem=mixed beam	!	!	!	!	!	!	!	!	!	!	!	!	!	!	!	!
8r	.	.	8r	.	8c#/L	.	8ee\L	.	.	.	.	.	.	.	.	.	.	4c#/	4a\	2r	2r
8AA/L	.	.	8A/L	.	8.cc#\J	.	8.ee\J	.	.	.	.	.	.	.	.	.	.	.	.	.	.
8C#/	.	.	8c#/	.	.	.	.	.	.	.	.	.	.	.	.	.	.	4e/	4b\	.	.
.	.	.	.	.	16dd\|	.	16ff#\LL|	.	.	.	.	.	.	.	.	.	.	.	.	.	.
8E/J	7 5	.	8e/J	.	16b\LL|	.	16dd\|	.	.	.	.	.	.	.	.	.	.	.	.	.	.
.	.	.	.	.	16g#\JJ|	.	16b\JJ|	.	.	.	.	.	.	.	.	.	.	.	.	.	.
=3	=3	=3	=3	=3	=3	=3	=3	=3	=3	=3	=3	=3	=3	=3	=3	=3	=3	=3	=3	=3	=3
!LO:TX:t=P:problem=mixed beam	!	!	!LO:TX:t=P:problem=mixed beam	!	!	!	!	!	!	!	!	!	!	!	!	!	!	!	!	!	!
8A\L	3	.	8a\L	.	8a/L	.	(16cc#\LL	.	.	.	.	.	.	.	.	.	.	8a\L	8cc#\L	8a/L	8cc#\L|
.	.	.	.	.	.	.	16ee\)	.	.	.	.	.	.	.	.	.	.	.	.	.	.
8D\	6	.	8d\	.	(16f#/L	.	16dd\|	.	.	.	.	.	.	.	.	.	.	8b\	8dd\	8b/	8dd\|
.	.	.	.	.	16d/JJ)	.	16b\JJ|	.	.	.	.	.	.	.	.	.	.	.	.	.	.
8E\	4	.	8e\	.	16c#/LL	.	(16a/LL	.	.	.	.	.	.	.	.	.	.	8a\	8cc#\	8a/	8cc#\|
.	.	.	.	.	16e/	.	16cc#/)	.	.	.	.	.	.	.	.	.	.	.	.	.	.
8EE/J	3	.	8E/J	.	16d/	.	16b/|	.	.	.	.	.	.	.	.	.	.	8e\J	8b\J	8g#/J	8b\J|
!	!	!	!	!	!LO:TX:a:t=h	!	!	!	!	!	!	!	!	!	!	!	!	!	!	!	!
.	.	.	.	.	16B/JJ	.	16g#/JJ|	.	.	.	.	.	.	.	.	.	.	.	.	.	.
=4	=4	=4	=4	=4	=4	=4	=4	=4	=4	=4	=4	=4	=4	=4	=4	=4	=4	=4	=4	=4	=4
8AA/	.	.	8A/L|	.	(16c#/LL	.	8a/	.	.	.	.	.	.	.	.	.	.	4c#/	4a\	8a/	8a/
.	.	.	.	.	16e/)	.	.	.	.	.	.	.	.	.	.	.	.	.	.	.	.
8r	.	.	8A/|	.	(16c#/	.	16r	.	.	.	.	.	.	.	.	.	.	.	.	8r	8r
.	.	.	.	.	16e/JJ)	.	16cc#\LL|	.	.	.	.	.	.	.	.	.	.	.	.	.	.
4EE/	.	.	8G#X/|	.	(16d/LL	.	16ee\|	.	.	.	.	.	.	.	.	.	.	4e/	4b\	4b\	4ee\
!	!	!	!	!	!LO:TX:b:i:t=dolce	!	!LO:TX:b:i:t=dolce.	!	!	!	!	!	!	!	!	!	!	!	!	!	!
.	.	.	.	.	16e/)	.	16ee\JJ|	.	.	.	.	.	.	.	.	.	.	.	.	.	.
.	.	.	8G#/J|	.	(16d/	.	(32ee\LLL	.	.	.	.	.	.	.	.	.	.	.	.	.	.
.	.	.	.	.	.	.	32dd\	.	.	.	.	.	.	.	.	.	.	.	.	.	.
.	.	.	.	.	16e/JJ)	.	32cc#\	.	.	.	.	.	.	.	.	.	.	.	.	.	.
.	.	.	.	.	.	.	32b\JJJ)	.	.	.	.	.	.	.	.	.	.	.	.	.	.
=5	=5	=5	=5	=5	=5	=5	=5	=5	=5	=5	=5	=5	=5	=5	=5	=5	=5	=5	=5	=5	=5
*	*	*	*	*	*	*	*	*	*	*	*	*	*	*	*	*	*	*	*	*	*2\right
8AA/	.	.	8A/L|	.	(16c#/LL	.	8a/	.	0r	.	0r	.	0r	.	1r	.	.	4c#/	4a\	4cc#\	2ee\
.	.	.	.	.	16e/)	.	.	.	.	.	.	.	.	.	.	.	.	.	.	.	.
8r	.	.	8A/|	.	(16c#/	.	16r	.	.	.	.	.	.	.	.	.	.	.	.	.	.
.	.	.	.	.	16e/JJ)	.	16cc#\	.	.	.	.	.	.	.	.	.	.	.	.	.	.
4EE/	.	.	8G#X/|	.	(16d/LL	.	16ee\LL|	.	.	.	.	.	.	.	.	.	.	4e/	4b\	4b\	.
.	.	.	.	.	16e/)	.	16ee\JJ|	.	.	.	.	.	.	.	.	.	.	.	.	.	.
.	.	.	8G#/J|	.	(16d/	.	(32ee\LLL	.	.	.	.	.	.	.	.	.	.	.	.	.	.
.	.	.	.	.	.	.	32dd\	.	.	.	.	.	.	.	.	.	.	.	.	.	.
.	.	.	.	.	16e/JJ)	.	32cc#\	.	.	.	.	.	.	.	.	.	.	.	.	.	.
.	.	.	.	.	.	.	32b\JJJ)	.	.	.	.	.	.	.	.	.	.	.	.	.	.
=6	=6	=6	=6	=6	=6	=6	=6	=6	=6	=6	=6	=6	=6	=6	=6	=6	=6	=6	=6	=6	=6
!	!	!	!LO:TX:t=P:problem=mixed beam	!	!	!	!	!	!	!	!	!	!	!	!	!	!	!	!	!	!
8AA/	.	.	8A/L	.	16c#/LL	.	16a/LL|	.	.	.	.	.	.	.	.	.	.	8r	8r	8r	8r
.	.	.	.	.	16e/	.	16e/|	.	.	.	.	.	.	.	.	.	.	.	.	.	.
!LO:TX:t=P:problem=mixed beam	!	!	!	!	!	!	!	!	!	!	!	!	!	!	!	!	!	!	!	!	!
8A\L	5 3	.	8a\	.	16c#/	.	16a/|	.	.	.	.	.	.	.	.	.	.	8c#/L	8a\L	8cc#\L	8aa\L
.	.	.	.	.	16e/JJ	.	16cc#/JJ|	.	.	.	.	.	.	.	.	.	.	.	.	.	.
8AA/J	.	.	8A/J	.	8c#/	.	8a/|	.	.	.	.	.	.	.	.	.	.	8c#/J	8a\J	8cc#\J	8aa\J
8r	.	.	8r	.	8r	.	8r	.	.	.	.	.	.	.	.	.	.	8r	8r	8r	8r
!	!	!	!	!	!	!	!LO:LB:g=original	!	!	!	!	!	!	!	!	!	!	!	!	!	!
=7	=7	=7	=7	=7	=7	=7	=7	=7	=7	=7	=7	=7	=7	=7	=7	=7	=7	=7	=7	=7	=7
!	!	!	!	!	!	!	!	!	!	!	!	!	!	!	!	!	!	!LO:TX:a:t=4	!LO:TX:a:t=4	!LO:TX:a:t=8	!LO:TX:a:t=8
8r	.	.	8r	.	8c#/	.	8e/	.	.	.	.	.	.	.	8e/	Sal-	.	0r	0r	0r	0r
!LO:TX:t=P:problem=mixed beam	!	!	!LO:TX:t=P:problem=mixed beam	!	!	!	!	!LO:DY:t=pia&colon;	!	!	!	!	!	!	!	!	!	!	!	!	!
8A\L	.	.	8a\L	.	4c#/	.	4e/	p	.	.	.	.	.	.	4e/	-ve	.	.	.	.	.
8AA/J	.	.	8A/J	.	.	.	.	.	.	.	.	.	.	.	.	.	.	.	.	.	.
8r	.	.	8r	.	(16c#/LL	.	(16a/LL	.	.	.	.	.	.	.	16a\LL	Re-	.	.	.	.	.
.	.	.	.	.	16e/JJ)	.	16g#/JJ)	.	.	.	.	.	.	.	16g#X\JJ	.	.	.	.	.	.
=8	=8	=8	=8	=8	=8	=8	=8	=8	=8	=8	=8	=8	=8	=8	=8	=8	=8	=8	=8	=8	=8
8r	.	.	8r	.	4e/	.	4g#/	.	.	.	.	.	.	.	4g#\	-gi-	.	.	.	.	.
!LO:TX:t=P:problem=mixed beam	!	!	!	!	!	!	!	!	!	!	!	!	!	!	!	!	!	!	!	!	!
8D\L	.	.	8d\L	.	.	.	.	.	.	.	.	.	.	.	.	.	.	.	.	.	.
!	!	!	!	!	!	!	!LO:TX:t=P:problem=mixed beam	!	!	!	!	!	!	!	!	!	!	!	!	!	!
!	!	!	!	!	!	!	!LO:TX:b:t=vox.	!	!	!	!	!	!	!	!	!	!	!	!	!	!
8DD/J	.	.	8d\J	.	8d/L	.	8f#/L|	.	.	.	.	.	.	.	8f#/	-na	.	.	.	.	.
8r	.	.	8r	.	(16B/L	.	(16dd\L	.	.	.	.	.	.	.	16dd\LL	Ma-	.	.	.	.	.
.	.	.	.	.	16d/JJ)	.	16b\JJ)	.	.	.	.	.	.	.	16b\JJ	.	.	.	.	.	.
!LO:LB:g=original	!	!	!LO:LB:g=original	!	!	!	!	!	!	!	!	!	!	!	!	!	!	!	!	!	!
=9	=9	=9	=9	=9	=9	=9	=9	=9	=9	=9	=9	=9	=9	=9	=9	=9	=9	=9	=9	=9	=9
4E\	.	.	4e\	.	(16c#/LL	.	(16a/LL	.	0r	.	0r	.	0r	.	16a\LL	.	.	.	.	.	.
.	.	.	.	.	16B/)	.	16g#X/)	.	.	.	.	.	.	.	16g#X\JJ	.	.	.	.	.	.
.	.	.	.	.	16e/|	.	16g#/|	.	.	.	.	.	.	.	16g#\LL	-ter	.	.	.	.	.
.	.	.	.	.	16f#/JJ|	.	16a/JJ|	.	.	.	.	.	.	.	16a\JJ	.	.	.	.	.	.
8E\L	.	.	8r	.	16g#/LL|	.	(16b\LL	.	.	.	.	.	.	.	16b\LL	Mi-	.	.	.	.	.
.	.	.	.	.	16a/|	.	16cc#\)	.	.	.	.	.	.	.	16cc#\JJ	.	.	.	.	.	.
8G#\J	.	.	8e\	.	16b/|	.	16dd\|	.	.	.	.	.	.	.	16dd\	-se-	.	.	.	.	.
.	.	.	.	.	16cc#/JJ|	.	16dd\JJ|	.	.	.	.	.	.	.	16dd\	-ri-	.	.	.	.	.
!	!	!	!	!	!LO:LB:g=original	!	!	!	!	!	!	!	!	!	!	!	!	!	!	!	!
=10	=10	=10	=10	=10	=10	=10	=10	=10	=10	=10	=10	=10	=10	=10	=10	=10	=10	=10	=10	=10	=10
!LO:TX:t=P:problem=mixed beam	!	!	!LO:TX:t=P:problem=mixed beam	!	!	!	!	!	!	!	!	!	!	!	!	!	!	!	!	!	!
8A\L	.	.	8a\L	.	16b/LL	.	(32ee\LLL	.	.	.	.	.	.	.	(32ee\LLL	-cor-	.	.	.	.	.
.	.	.	.	.	.	.	32dd\	.	.	.	.	.	.	.	32dd\	.	.	.	.	.	.
.	.	.	.	.	32a/L	.	32cc#\	.	.	.	.	.	.	.	32cc#\	di-	.	.	.	.	.
.	.	.	.	.	32b/JJ	.	32dd\JJ)	.	.	.	.	.	.	.	32dd\JJJ)	.	.	.	.	.	.
8E\	.	.	8e\	.	8a/J	.	8cc#\J|	.	.	.	.	.	.	.	8cc#\	-e	.	.	.	.	.
8AA/J	.	.	8A/J	.	4r	.	16r	.	.	.	.	.	.	.	16r	.	.	.	.	.	.
.	.	.	.	.	.	.	16a\LL|	.	.	.	.	.	.	.	16a\LL|	vi-	.	.	.	.	.
8r	.	.	8r	.	.	.	16cc#\|	.	.	.	.	.	.	.	16cc#\|	.	.	.	.	.	.
.	.	.	.	.	.	.	16ee\JJ|	.	.	.	.	.	.	.	16ee\JJ|	.	.	.	.	.	.
=11	=11	=11	=11	=11	=11	=11	=11	=11	=11	=11	=11	=11	=11	=11	=11	=11	=11	=11	=11	=11	=11
!LO:TX:t=P:problem=mixed beam	!	!	!	!	!	!	!	!	!	!	!	!	!	!	!	!	!	!	!	!	!
8A\L	.	.	16A/LL|	.	8.cc#\L	.	8.aa\	.	.	.	.	.	.	.	8.aa\	-ta	.	8r	8r	0r	0r
.	.	.	(16e/	.	.	.	.	.	.	.	.	.	.	.	.	.	.	.	.	.	.
8AA/J	.	.	16c#/	.	.	.	.	.	.	.	.	.	.	.	.	.	.	8A/L	8a\L	.	.
.	.	.	16e/JJ)	.	16cc#\Jk	.	16ee\	.	.	.	.	.	.	.	16ee\	dul-	.	.	.	.	.
4r	.	.	16A/LL|	.	(16dd\LL	.	(16ff#\LL	.	.	.	.	.	.	.	16ff#\LL	-ce-	.	8A/	8a\	.	.
.	.	.	(16e/	.	16cc#\	.	16ee\	.	.	.	.	.	.	.	16ee\	.	.	.	.	.	.
.	.	.	16c#/	.	16b\	.	16dd\	.	.	.	.	.	.	.	16dd\	-do	.	8A/J	8a\J	.	.
.	.	.	16e/JJ)	.	16a\JJ)	.	16cc#\JJ)	.	.	.	.	.	.	.	16cc#\JJ	.	.	.	.	.	.
!	!	!	!	!	!	!	!	!	!	!	!	!	!	!	!LO:LB:g=original	!	!	!	!	!	!
=12	=12	=12	=12	=12	=12	=12	=12	=12	=12	=12	=12	=12	=12	=12	=12	=12	=12	=12	=12	=12	=12
!LO:TX:t=P:problem=mixed beam	!	!	!	!	!	!	!	!	!	!	!	!	!	!	!	!	!	!	!	!	!
8A\L	6 4	.	16A\LL	.	8.cc#\L	.	8.aa\L	.	.	.	.	.	.	.	(8.aa\L	et	.	8r	8r	.	.
.	.	.	16f#\	.	.	.	.	.	.	.	.	.	.	.	.	.	.	.	.	.	.
8AA/J	.	.	16d\	.	.	.	.	.	.	.	.	.	.	.	.	.	.	8A/L	8a\L	.	.
.	.	.	16f#\JJ	.	16a\Jk	.	(16ff#\Jk	.	.	.	.	.	.	.	16ff#\Jk	.	.	.	.	.	.
4r	.	.	16A\LL	.	16b/LL	.	16ggn\LL	.	.	.	.	.	.	.	16ggn\LL	.	.	8A/	8a\	.	.
.	.	.	16f#\	.	16a/	.	16ff#\	.	.	.	.	.	.	.	16ff#\)	.	.	.	.	.	.
.	.	.	16d\	.	16gn/	.	16ee\	.	.	.	.	.	.	.	(16ee\	spes	.	8A/J	8a\J	.	.
.	.	.	16f#\JJ	.	16f#/JJ	.	16dd\JJ)	.	.	.	.	.	.	.	16dd\JJ)	.	.	.	.	.	.
=13	=13	=13	=13	=13	=13	=13	=13	=13	=13	=13	=13	=13	=13	=13	=13	=13	=13	=13	=13	=13	=13
!LO:TX:t=P:problem=mixed beam	!	!	!	!	!	!	!	!	!	!	!	!	!	!	!	!	!	!LO:TX:a:t=2	!LO:TX:a:t=2	!	!
8C#\L	6	.	8c#\L	.	8a/L	.	(16ee\LL	.	0r	.	0r	.	0r	.	16ee\LL	no-	.	1r	1r	.	.
.	.	.	.	.	.	.	16cc#\)	.	.	.	.	.	.	.	16cc#\	.	.	.	.	.	.
8D\	6	.	8d\	.	8f#/	.	(16dd\	.	.	.	.	.	.	.	16dd\	-stra	.	.	.	.	.
.	.	.	.	.	.	.	16b\JJ)	.	.	.	.	.	.	.	16b\JJ	.	.	.	.	.	.
8E\	4	.	8e\	.	8e/	.	(16cc#/LL	.	.	.	.	.	.	.	(16cc#\LL	Sal-	.	.	.	.	.
.	.	.	.	.	.	.	16a/)	.	.	.	.	.	.	.	16a\	.	.	.	.	.	.
8EE/J	3	.	8e\J	.	8d/J	.	(16b#X/	.	.	.	.	.	.	.	16b\	.	.	.	.	.	.
.	.	.	.	.	.	.	16g#/JJ)	.	.	.	.	.	.	.	16g#X\JJ)	.	.	.	.	.	.
=14	=14	=14	=14	=14	=14	=14	=14	=14	=14	=14	=14	=14	=14	=14	=14	=14	=14	=14	=14	=14	=14
!LO:TX:t=P:problem=mixed beam	!	!	!LO:TX:t=P:problem=mixed beam	!	!	!	!	!	!	!	!	!	!	!	!	!	!	!	!	!	!
8A\L	3	.	8a\L	.	8c#/	.	8a/	.	.	.	.	.	.	.	8a\	-ve	.	.	.	.	.
8AA/J	.	.	8A/J	.	8r	.	8r	.	.	.	.	.	.	.	8r	.	.	.	.	.	.
4r	.	.	4r	.	16r	.	16r	.	.	.	.	.	.	.	4r	.	.	.	.	.	.
!	!	!	!	!	!	!LO:DY:t=for&colon;	!	!LO:DY:t=for&colon;	!	!	!	!	!	!	!	!	!	!	!	!	!
.	.	.	.	.	16A/LL	f	16a\LL|	f	.	.	.	.	.	.	.	.	.	.	.	.	.
.	.	.	.	.	16c#/	.	16cc#\|	.	.	.	.	.	.	.	.	.	.	.	.	.	.
.	.	.	.	.	16e/JJ	.	16ee\JJ|	.	.	.	.	.	.	.	.	.	.	.	.	.	.
!	!	!	!	!	!	!	!LO:LB:g=original	!	!	!	!	!	!	!	!	!	!	!	!LO:LB:g=original	!	!
=15	=15	=15	=15	=15	=15	=15	=15	=15	=15	=15	=15	=15	=15	=15	=15	=15	=15	=15	=15	=15	=15
!LO:TX:t=P:problem=mixed beam	!	!	!	!	!	!	!	!	!	!	!	!	!	!	!LO:TX:a:t=2	!	!	!	!	!	!
8A\L	3	.	8.e\L|	.	8.cc#\L	.	8.aa\L	.	.	.	.	.	.	.	1r	.	.	8r	8r	8a/	8aa\
8AA/J	.	.	.	.	.	.	.	.	.	.	.	.	.	.	.	.	.	8A/L	8a\L	8r	8r
.	.	.	16e\Jk|	.	16cc#\Jk	.	(16ee\Jk	p	.	.	.	.	.	.	.	.	.	.	.	.	.
4r	.	.	(16f#\LL	.	(16dd\LL	.	16ff#\LL	.	.	.	.	.	.	.	.	.	.	8A/	8a\	4r	4r
.	.	.	16e\	.	16cc#\	.	16ee\	.	.	.	.	.	.	.	.	.	.	.	.	.	.
.	.	.	16d\	.	16b\	.	16dd\	.	.	.	.	.	.	.	.	.	.	8A/J	8a\J	.	.
.	.	.	16c#\JJ)	.	16a\JJ)	.	16cc#\JJ)	.	.	.	.	.	.	.	.	.	.	.	.	.	.
=16	=16	=16	=16	=16	=16	=16	=16	=16	=16	=16	=16	=16	=16	=16	=16	=16	=16	=16	=16	=16	=16
!LO:TX:t=P:problem=mixed beam	!	!	!	!	!	!	!	!	!	!	!	!	!	!	!	!	!	!	!	!	!
8A\L	6 4	.	8.f#\L	.	8.cc#\L	.	8.aa\L	f	.	.	.	.	.	.	.	.	.	8r	8r	8a/	8aa\
8AA/J	.	.	.	.	.	.	.	.	.	.	.	.	.	.	.	.	.	8A/L	8a\L	8r	8r
.	.	.	16f#\Jk	.	16a\Jk	.	(16ff#\Jk	.	.	.	.	.	.	.	.	.	.	.	.	.	.
4r	.	.	(16g#\LL	.	(16b/LL	.	16ggn\LL	p	.	.	.	.	.	.	.	.	.	8A/	8a\	4r	4r
.	.	.	16f#\	.	16a/	.	16ff#\	.	.	.	.	.	.	.	.	.	.	.	.	.	.
.	.	.	16e\	.	16gn/	.	16ee\	.	.	.	.	.	.	.	.	.	.	8A/J	8a\J	.	.
.	.	.	16d\JJ)	.	16f#/JJ)	.	16dd\JJ)	.	.	.	.	.	.	.	.	.	.	.	.	.	.
!	!	!	!	!	!	!	!	!	!	!	!	!	!	!	!	!	!	!LO:LB:g=original	!	!	!
=17	=17	=17	=17	=17	=17	=17	=17	=17	=17	=17	=17	=17	=17	=17	=17	=17	=17	=17	=17	=17	=17
!	!	!	!	!	!	!	!LO:TX:b:t=vox	!	!	!	!	!	!	!	!	!	!	!	!	!	!
4AA/	.	.	4e\	.	16a\LL	.	16cc#\LL|	.	0r	.	0r	.	0r	.	16cc#\LL	et	.	4A/	4a\	4r	4r
.	.	.	.	.	16cc#\	.	16ee\|	.	.	.	.	.	.	.	16ee\JJ	.	.	.	.	.	.
!	!	!	!	!	!LO:TX:b:t=vox	!	!	!	!	!	!	!	!	!	!	!	!	!	!	!	!
.	.	.	.	.	(16dd\	.	16ff#\|	.	.	.	.	.	.	.	16ff#\LL	spes	.	.	.	.	.
.	.	.	.	.	16b\JJ)	.	16gg#\JJ|	.	.	.	.	.	.	.	16gg#\JJ	.	.	.	.	.	.
8r	.	.	8r	.	8cc#\L	.	8aa\L	.	.	.	.	.	.	.	8aa\	no-	.	8r	8r	8r	8r
8AA/	.	.	8e\	.	8a\J	.	8cc#\J	.	.	.	.	.	.	.	8cc#\	-stra	.	8a\	8cc#/	8a/	8cc#\
!LO:LB:g=original	!	!	!LO:LB:g=original	!	!	!	!	!	!	!	!	!	!	!	!	!	!	!	!	!	!
=18	=18	=18	=18	=18	=18	=18	=18	=18	=18	=18	=18	=18	=18	=18	=18	=18	=18	=18	=18	=18	=18
!LO:TX:t=P:problem=mixed beam	!	!	!	!	!	!	!	!	!	!	!	!	!	!	!	!	!	!LO:TX:t=P:problem=mixed beam	!	!	!
8E\L	.	.	8e\L	.	8a/L	.	8cc#\L	.	.	.	.	.	.	.	8cc#\	sal-	.	8a\L	8cc#\L	8a/L	8cc#\L
8BB\	.	.	8e\	.	8g#X/J	.	8b\J	.	.	.	.	.	.	.	8b\	-ve	.	8e/J	8b\J	8g#/J	8b\J
8EE/J	.	.	8e\J	.	4r	.	8r	.	.	.	.	.	.	.	8r	.	.	4r	4r	4r	4r
8r	.	.	8r	.	.	.	8b\	.	.	.	.	.	.	.	8b\	vi-	.	.	.	.	.
!	!	!	!	!	!LO:LB:g=original	!	!	!	!	!	!	!	!	!	!	!	!	!	!	!LO:LB:g=original	!LO:LB:g=original
=19	=19	=19	=19	=19	=19	=19	=19	=19	=19	=19	=19	=19	=19	=19	=19	=19	=19	=19	=19	=19	=19
!	!	!	!	!	!	!	!	!	!	!	!	!	!	!	!	!	!	!LO:TX:a:t=7	!LO:TX:a:t=7	!LO:TX:a:t=6	!LO:TX:a:t=6
8r	.	.	8r	.	8r	.	8r	.	.	.	.	.	.	.	(4b\	-ta	.	0r	0r	0r	0r
8E\L	.	.	(8e'\L	.	8g#'/L	.	(8b'\L	.	.	.	.	.	.	.	.	.	.	.	.	.	.
8E\	.	.	8e'\	.	8g#'/	.	8b'\	.	.	.	.	.	.	.	16ee\LL	.	.	.	.	.	.
.	.	.	.	.	.	.	.	.	.	.	.	.	.	.	16dd#X\JJ	.	.	.	.	.	.
8E\J	.	.	8e'\J)	.	8g#'/J	.	8b'\J)	.	.	.	.	.	.	.	16cc#\LL	dul-	.	.	.	.	.
.	.	.	.	.	.	.	.	.	.	.	.	.	.	.	16b\JJ)	.	.	.	.	.	.
!	!	!	!	!	!	!	!	!	!	!	!	!	!	!	!LO:LB:g=original	!	!	!	!	!	!
=20	=20	=20	=20	=20	=20	=20	=20	=20	=20	=20	=20	=20	=20	=20	=20	=20	=20	=20	=20	=20	=20
8r	.	.	8r	.	8r	.	8r	.	.	.	.	.	.	.	(16b\LL	-ce-	.	.	.	.	.
.	.	.	.	.	.	.	.	.	.	.	.	.	.	.	16cc#\JJ)	.	.	.	.	.	.
8E\L	.	.	8e\L	.	8g#'/L	.	8b|\L	.	.	.	.	.	.	.	8b\	-do	.	.	.	.	.
8E\	.	.	8e\	.	8g#'/	.	8b|\J	.	.	.	.	.	.	.	8r	.	.	.	.	.	.
8E\J	.	.	8g#X\J	.	8b'/J	.	16gg#\LL	.	.	.	.	.	.	.	16gg#\	et	.	.	.	.	.
.	.	.	.	.	.	.	16ee\JJ	.	.	.	.	.	.	.	16ee\	spes	.	.	.	.	.
=21	=21	=21	=21	=21	=21	=21	=21	=21	=21	=21	=21	=21	=21	=21	=21	=21	=21	=21	=21	=21	=21
8F#\L	.	.	8f#\L	.	8a/L	.	8dd#X\L	.	0r	.	0r	.	0r	.	(16ee\LL	no-	.	.	.	.	.
.	.	.	.	.	.	.	.	.	.	.	.	.	.	.	16dd#X\	.	.	.	.	.	.
8E\	.	.	8e\	.	8g#/	.	8b\	.	.	.	.	.	.	.	16ee\	.	.	.	.	.	.
.	.	.	.	.	.	.	.	.	.	.	.	.	.	.	16cc#\JJ)	.	.	.	.	.	.
8D#X\	.	.	8d#X\	.	8f#/	.	8b\	.	.	.	.	.	.	.	(16cc#\LL	.	.	.	.	.	.
.	.	.	.	.	.	.	.	.	.	.	.	.	.	.	16b\)	.	.	.	.	.	.
8BB\J	.	.	8B\J	.	8d#X/J	.	8b\J	.	.	.	.	.	.	.	(16b\	-stra	.	.	.	.	.
.	.	.	.	.	.	.	.	.	.	.	.	.	.	.	16a\JJ)	.	.	.	.	.	.
=22	=22	=22	=22	=22	=22	=22	=22	=22	=22	=22	=22	=22	=22	=22	=22	=22	=22	=22	=22	=22	=22
4E\	.	.	8e\L	.	8f#/L	.	8dd#X\L|	.	.	.	.	.	.	.	8a\	Sal-	.	.	.	.	.
.	.	.	8e\	.	8g#/J	.	8ee\J|	.	.	.	.	.	.	.	8g#\	-ve.	.	.	.	.	.
4r	.	.	8e\J	.	4r	.	16r	.	.	.	.	.	.	.	16r	.	.	.	.	.	.
!	!	!	!	!	!	!	!LO:TX:t=P:problem=mixed beam	!	!	!	!	!	!	!	!	!	!	!	!	!	!
.	.	.	.	.	.	.	16b\LL|	.	.	.	.	.	.	.	16b\LL	et	.	.	.	.	.
.	.	.	8r	.	.	.	(16ee\	.	.	.	.	.	.	.	16ee\JJ	.	.	.	.	.	.
.	.	.	.	.	.	.	16g#/JJ)	.	.	.	.	.	.	.	16g#/	spes	.	.	.	.	.
=23	=23	=23	=23	=23	=23	=23	=23	=23	=23	=23	=23	=23	=23	=23	=23	=23	=23	=23	=23	=23	=23
8r	.	.	8r	.	8r	.	16g#/LL	.	.	.	.	.	.	.	16g#\LL	no-	.	1r	1r	1r	1r
.	.	.	.	.	.	.	16f#/JJ	.	.	.	.	.	.	.	16f#\JJ	.	.	.	.	.	.
8A\L	3	.	8a\L	.	8cc#\	.	8f#/	.	.	.	.	.	.	.	16f#/	-stra	.	.	.	.	.
.	.	.	.	.	.	.	.	.	.	.	.	.	.	.	16ryy	.	.	.	.	.	.
8A\	.	.	8a\	.	(16cc#\LL	.	(16aa\LL	.	.	.	.	.	.	.	(16aa\LL	no-	.	.	.	.	.
.	.	.	.	.	16b\	.	16gg#\	.	.	.	.	.	.	.	16gg#\JJ)	.	.	.	.	.	.
8A#X\J	3	.	8cc#\J	.	16a\	.	16ff#\	.	.	.	.	.	.	.	(16ff#\LL	-stra	.	.	.	.	.
.	.	.	.	.	16g#\JJ)	.	16ee\JJ)	.	.	.	.	.	.	.	16ee\JJ)	.	.	.	.	.	.
!	!	!	!	!	!	!	!LO:LB:g=original	!	!	!	!	!	!	!	!	!	!	!	!	!	!
=24	=24	=24	=24	=24	=24	=24	=24	=24	=24	=24	=24	=24	=24	=24	=24	=24	=24	=24	=24	=24	=24
!LO:TX:t=P:problem=mixed beam	!	!	!	!	!	!	!	!	!	!	!	!	!	!	!	!	!	!	!	!	!
8B\L	4	.	8b\L	.	8g#/L	.	8ee\L|	.	.	.	.	.	.	.	8ee\|	Sal-	.	.	.	.	.
!	!	!	!	!	!	!	!	!	!	!	!	!	!	!	!LO:SIC:v:s=8dd#\|	!	!	!	!	!	!
8F#\	#	.	8b\	.	8f#/J	.	8dd#X\J	.	.	.	.	.	.	.	8dd\|	-ve.	.	.	.	.	.
8BB/J	.	.	8b\J	.	4r	.	4r	.	.	.	.	.	.	.	4r	.	.	.	.	.	.
8r	.	.	8r	.	.	.	.	.	.	.	.	.	.	.	.	.	.	.	.	.	.
=25	=25	=25	=25	=25	=25	=25	=25	=25	=25	=25	=25	=25	=25	=25	=25	=25	=25	=25	=25	=25	=25
!LO:TX:a:t=1.	!	!	!	!	!LO:TX:a:t=1.	!	!LO:TX:a:t=1.	!	!	!	!	!	!	!	!	!	!	!	!	!	!
2r	.	.	4b\|	.	2r	.	2r	.	4B\	ad	4B\	ad	4b\	Ad	4b\	ad	.	2r	2r	4b\	4b\
.	.	.	8b\L|	.	.	.	.	.	8B\	te	8B\	te	8b\	te	8b\	te	.	.	.	8b\L|	8b\L|
.	.	.	8b\J|	.	.	.	.	.	8B\	cla-	8B\	Cla-	8b\	cla-	8b\	cla-	.	.	.	8b\J|	8b\J|
!	!	!	!	!	!	!	!	!	!	!	!	!	!	!	!LO:LB:g=original	!	!	!	!	!	!
=26	=26	=26	=26	=26	=26	=26	=26	=26	=26	=26	=26	=26	=26	=26	=26	=26	=26	=26	=26	=26	=26
!	!	!	!	!	!	!	!	!LO:DY:t=p.	!	!	!	!	!	!	!	!	!	!	!	!	!
4r	.	.	8b\L|	.	4r	.	4r	p	8B\	-ma-	8B\	-ma-	8b\	-ma-	8b\	-ma-	.	4r	4r	8b\L	8b\L
.	.	.	8b\|	.	.	.	.	.	8B\	-mus	8B\	-mus	8b\	-mus	8b\	-mus	.	.	.	8b\J	8b\J
!LO:TX:a:i:t=Pedal.	!	!	!	!	!	!	!LO:TUP:a:problem=klamra łukowa	!	!	!	!	!	!	!	!	!	!	!	!	!	!
8BB/L|	.	.	8f#\|	.	8d#X/L|	.	24ff#\LL	.	4r	.	4r	.	4r	.	4r	.	.	8b\L	8b\L	4r	4r
.	.	.	.	.	.	.	24ee\	.	.	.	.	.	.	.	.	.	.	.	.	.	.
.	.	.	.	.	.	.	24dd#X\JJ	.	.	.	.	.	.	.	.	.	.	.	.	.	.
!	!	!	!	!	!	!	!LO:TUP:a:problem=klamra łukowa	!	!	!	!	!	!	!	!	!	!	!	!	!	!
8BB/J|	.	.	8f#\J|	.	8d#/J|	.	24dd#\LL	.	.	.	.	.	.	.	.	.	.	8b\J	8b\J	.	.
.	.	.	.	.	.	.	24ee\	.	.	.	.	.	.	.	.	.	.	.	.	.	.
.	.	.	.	.	.	.	24ff#\JJ	.	.	.	.	.	.	.	.	.	.	.	.	.	.
!LO:LB:g=original	!	!	!	!	!	!	!	!	!	!	!	!	!	!	!	!	!	!	!	!	!
=27	=27	=27	=27	=27	=27	=27	=27	=27	=27	=27	=27	=27	=27	=27	=27	=27	=27	=27	=27	=27	=27
*	*	*	*	*	*	*	*Xtuplet	*	*	*	*	*	*	*	*	*	*	*	*	*	*
!	!	!	!	!	!LO:SIC:v:s=8d#/L|	!	!	!	!LO:TX:a:t=1.	!	!	!	!	!	!LO:TX:a:t=1.	!	!	!	!	!LO:TX:a:t=1.	!
8BB/L	.	.	8f#\L|	.	8d/L|	.	24ff#\LL	.	2r	.	2r	.	2r	.	2r	.	.	8b\L	8b\L	2r	2r
.	.	.	.	.	.	.	24ee\	.	.	.	.	.	.	.	.	.	.	.	.	.	.
!	!	!	!	!	!	!	!LO:SIC:v:s=24dd#\JJ	!	!	!	!	!	!	!	!	!	!	!	!	!	!
.	.	.	.	.	.	.	24dd\JJ	.	.	.	.	.	.	.	.	.	.	.	.	.	.
!	!	!	!	!	!LO:SIC:v:s=8d#/J|	!	!LO:SIC:v:s=24dd#\LL	!	!	!	!	!	!	!	!	!	!	!	!	!	!
8BB/J	.	.	8f#\J|	.	8d/J|	.	24dd\LL	.	.	.	.	.	.	.	.	.	.	8b\J	8b\J	.	.
.	.	.	.	.	.	.	24cc#\	.	.	.	.	.	.	.	.	.	.	.	.	.	.
.	.	.	.	.	.	.	24b\JJ	.	.	.	.	.	.	.	.	.	.	.	.	.	.
32BB/LLL	8	f	4r	.	(32B/LLL	.	32B/LLL	f	.	.	.	.	.	.	.	.	.	4r	4r	.	.
32AA#X/	8	.	.	.	32A#X/	.	32A#X/	.	.	.	.	.	.	.	.	.	.	.	.	.	.
32BB/	8	.	.	.	32B/	.	32B/	.	.	.	.	.	.	.	.	.	.	.	.	.	.
32AA#/JJ	8	.	.	.	32A#/JJ)	.	32A#/JJ	.	.	.	.	.	.	.	.	.	.	.	.	.	.
8BB/J	8	.	.	.	8B/J	.	8B/J	.	.	.	.	.	.	.	.	.	.	.	.	.	.
!	!	!	!LO:LB:g=original	!	!	!	!	!	!	!	!	!	!	!	!	!	!	!	!	!	!
=28	=28	=28	=28	=28	=28	=28	=28	=28	=28	=28	=28	=28	=28	=28	=28	=28	=28	=28	=28	=28	=28
2r	.	.	4b\|	.	2r	.	2r	.	4B\	e-	4B\	e-	4b\	E-	4b\	E-	.	2r	2r	4b\	4b\|
.	.	.	8b\L|	.	.	.	.	.	8B\	-xu-	8B\	-xu-	8b\	-xu-	8b\	-xu-	.	.	.	8b\L|	8b\L|
.	.	.	8b\J|	.	.	.	.	.	8B\	-les	8B\	-les	8b\	-les	8b\	-les	.	.	.	8b\J|	8b\J|
=29	=29	=29	=29	=29	=29	=29	=29	=29	=29	=29	=29	=29	=29	=29	=29	=29	=29	=29	=29	=29	=29
4r	.	.	8b\L|	.	4r	.	4r	.	8B\	Fi-	8B\	Fi-	8b\	fi-	8b\	fi-	.	4r	4r	8b\	8b\L
.	.	.	8b\|	.	.	.	.	.	8B\	-li	8B\	-li	8b\	-li	8b\	-li	.	.	.	8b\	8b\J
8BB/L|	.	p	8g#\|	.	8e/L	.	24gg#\LL	p	4r	.	4r	.	4r	.	4r	.	.	8b\L	8b\L	4r	4r
.	.	.	.	.	.	.	24ff#\	.	.	.	.	.	.	.	.	.	.	.	.	.	.
.	.	.	.	.	.	.	24ee\JJ	.	.	.	.	.	.	.	.	.	.	.	.	.	.
8BB/J|	.	.	8g#\J|	.	8e/J	.	24ee\LL	.	.	.	.	.	.	.	.	.	.	8b\J	8b\J	.	.
.	.	.	.	.	.	.	24ff#\	.	.	.	.	.	.	.	.	.	.	.	.	.	.
.	.	.	.	.	.	.	24gg#\JJ	.	.	.	.	.	.	.	.	.	.	.	.	.	.
!	!	!	!	!	!LO:LB:g=original	!	!	!	!	!	!	!	!	!	!	!	!	!	!	!	!
=30	=30	=30	=30	=30	=30	=30	=30	=30	=30	=30	=30	=30	=30	=30	=30	=30	=30	=30	=30	=30	=30
!	!	!	!	!	!	!	!	!	!	!	!	!	!	!	!LO:TX:a:t=1.	!	!	!	!	!	!LO:TX:a:t=1.
8BB/L	.	.	8g#\L|	.	8e/L	.	24gg#\LL	.	2r	.	2r	.	2r	.	2r	.	.	8b\L	8b\L	2r	2r
.	.	.	.	.	.	.	24ff#\	.	.	.	.	.	.	.	.	.	.	.	.	.	.
.	.	.	.	.	.	.	24ee\JJ	.	.	.	.	.	.	.	.	.	.	.	.	.	.
8BB/J	.	.	8g#\J|	.	8e/J	.	24ee\LL	.	.	.	.	.	.	.	.	.	.	8b\J	8b\J	.	.
.	.	.	.	.	.	.	24dd#X\	.	.	.	.	.	.	.	.	.	.	.	.	.	.
.	.	.	.	.	.	.	24ee\JJ	.	.	.	.	.	.	.	.	.	.	.	.	.	.
!	!	!	!	!	!	!	!	!LO:DY:t=f	!	!	!	!	!	!	!	!	!	!	!	!	!
32BB/LLL	8	.	4r	.	(32B/LLL	.	32B/LLL	f	.	.	.	.	.	.	.	.	.	4r	4r	.	.
32AA#X/	8	.	.	.	32A#X/	.	32A#X/	.	.	.	.	.	.	.	.	.	.	.	.	.	.
32BB/	8	.	.	.	32B/	.	32B/	.	.	.	.	.	.	.	.	.	.	.	.	.	.
32AA#/JJ	8	.	.	.	32A#/JJ)	.	32A#/JJ	.	.	.	.	.	.	.	.	.	.	.	.	.	.
8BB/J	8	.	.	.	8B/J	.	8B/J	.	.	.	.	.	.	.	.	.	.	.	.	.	.
!	!	!	!	!	!	!	!	!	!LO:LB:g=original	!	!	!	!	!	!	!	!	!	!	!	!
=31	=31	=31	=31	=31	=31	=31	=31	=31	=31	=31	=31	=31	=31	=31	=31	=31	=31	=31	=31	=31	=31
!	!	!	!	!	!	!	!	!	!	!	!	!	!	!	!	!	!	!	!LO:TX:a:t=1.	!	!
2r	.	.	4.b\	.	2r	.	2r	.	4.B\	Fi-	4.B\	Fi-	4.b\	fi-	[4b\	Fi-	.	2r	2r	4b\	4b\|
.	.	.	.	.	.	.	.	.	.	.	.	.	.	.	8b\]	.	.	.	.	8b\L|	8b\L|
.	.	.	8b\	.	.	.	.	.	8B\	-li	8B\	-li	8b\	-li	8b\	-li	.	.	.	8b\J|	8b\J|
!	!	!	!	!	!	!	!LO:LB:g=original	!	!	!	!LO:LB:g=original	!	!LO:LB:g=original	!	!	!	!	!	!LO:LB:g=original	!	!
=32	=32	=32	=32	=32	=32	=32	=32	=32	=32	=32	=32	=32	=32	=32	=32	=32	=32	=32	=32	=32	=32
4r	.	.	8b\L|	.	4r	.	4r	.	8B\	E-	8B\	E-	8b\	E-	8b\	E-	.	4r	4r	8b\L	8b\L
.	.	.	8b\J|	.	.	.	.	.	8B\	-ve	8B\	-ve	8b\	-ve	8b\	-ve	.	.	.	8b\J	8b\J
8BB/L|	.	.	8a\L|	.	8f#/L	.	24aa\LL	p	4r	.	4r	.	4r	.	4r	.	.	8b\L	8b\L	4r	4r
.	.	.	.	.	.	.	24ff#\	.	.	.	.	.	.	.	.	.	.	.	.	.	.
.	.	.	.	.	.	.	24dd#X\JJ	.	.	.	.	.	.	.	.	.	.	.	.	.	.
8BB/J|	.	.	8a\J|	.	8f#/J	.	24b\LL	.	.	.	.	.	.	.	.	.	.	8b\J	8b\J	.	.
.	.	.	.	.	.	.	24dd#\	.	.	.	.	.	.	.	.	.	.	.	.	.	.
.	.	.	.	.	.	.	24ff#\JJ	.	.	.	.	.	.	.	.	.	.	.	.	.	.
=33	=33	=33	=33	=33	=33	=33	=33	=33	=33	=33	=33	=33	=33	=33	=33	=33	=33	=33	=33	=33	=33
*	*	*	*Xtuplet	*	*	*	*	*	*	*	*	*	*	*	*	*	*	*	*	*	*
!	!	!	!	!	!	!	!	!LO:DY:t=for&colon;	!	!	!	!	!	!	!	!	!	!	!	!	!
16E\LL	3	.	24g#\LL	.	(16f#/LL	f	24gg#\LL	f	4E\	ad	4B\	ad	4g#\	ad	4ee\	ad	.	4e/	4b\	4ee\	4gg#\
.	.	.	24b\	.	.	.	24bb\	.	.	.	.	.	.	.	.	.	.	.	.	.	.
16B\	.	.	.	.	16b/	.	.	.	.	.	.	.	.	.	.	.	.	.	.	.	.
.	.	.	24a\JJ	.	.	.	24aa\JJ	.	.	.	.	.	.	.	.	.	.	.	.	.	.
16G#X\	.	.	24g#\LL	.	16f#/	.	24gg#\LL	.	.	.	.	.	.	.	.	.	.	.	.	.	.
.	.	.	24f#\	.	.	.	24ff#\	.	.	.	.	.	.	.	.	.	.	.	.	.	.
16E\JJ	.	.	.	.	16b/JJ)	.	.	.	.	.	.	.	.	.	.	.	.	.	.	.	.
.	.	.	24e\JJ	.	.	.	24ee\JJ	.	.	.	.	.	.	.	.	.	.	.	.	.	.
16F#\LL	6\	.	24d#X\LL	.	(16a/LL	.	24dd#X\LL	.	4B\	te	4B\	te	4f#\	te	4dd#X\	te	.	4b\	4b\	4ff#\	4aa\
.	.	.	24f#\	.	.	.	24ff#\	.	.	.	.	.	.	.	.	.	.	.	.	.	.
16E\	.	.	.	.	16b/	.	.	.	.	.	.	.	.	.	.	.	.	.	.	.	.
.	.	.	24e\JJ	.	.	.	24ee\JJ	.	.	.	.	.	.	.	.	.	.	.	.	.	.
16D#X\	.	.	24d#\LL	.	16a/	.	24dd#\LL	.	.	.	.	.	.	.	.	.	.	.	.	.	.
.	.	.	24c#\	.	.	.	24cc#\	.	.	.	.	.	.	.	.	.	.	.	.	.	.
16BB\JJ	.	.	.	.	16b/JJ)	.	.	.	.	.	.	.	.	.	.	.	.	.	.	.	.
.	.	.	24B\JJ	.	.	.	24b\JJ	.	.	.	.	.	.	.	.	.	.	.	.	.	.
=34	=34	=34	=34	=34	=34	=34	=34	=34	=34	=34	=34	=34	=34	=34	=34	=34	=34	=34	=34	=34	=34
16E\LL	3	.	24e\LL	.	(16g#/LL	.	24ee\LL	.	4e\	sus-	4B\	sus-	4g#\	sus-	4ee\	Sus-	.	4e/	4b\	4ee\	4gg#\
.	.	.	24g#\	.	.	.	24gg#\	.	.	.	.	.	.	.	.	.	.	.	.	.	.
16F#\	.	.	.	.	16b/	.	.	.	.	.	.	.	.	.	.	.	.	.	.	.	.
.	.	.	24f#\JJ	.	.	.	24ff#\JJ	.	.	.	.	.	.	.	.	.	.	.	.	.	.
16G#\	.	.	24e\LL	.	16g#/	.	24ee\LL	.	.	.	.	.	.	.	.	.	.	.	.	.	.
.	.	.	24d#X\	.	.	.	24dd#X\	.	.	.	.	.	.	.	.	.	.	.	.	.	.
16A\JJ	.	.	.	.	16b/JJ)	.	.	.	.	.	.	.	.	.	.	.	.	.	.	.	.
.	.	.	24e\JJ	.	.	.	24ee\JJ	.	.	.	.	.	.	.	.	.	.	.	.	.	.
!LO:TX:t=P:problem=mixed beam	!	!	!	!	!	!	!	!	!	!	!	!	!	!	!	!	!	!	!	!	!
16B\LL	.	.	24a\LL	.	(16f#/LL	.	24aa\LL	.	4B\	-pi-	4B\	-pi-	4a\	-pi-	4ff#\	-pi-	.	4b\	4b\	4dd#X\	4ff#\
.	.	.	24f#\	.	.	.	24ff#\	.	.	.	.	.	.	.	.	.	.	.	.	.	.
16F#\J	.	.	.	.	16b/	.	.	.	.	.	.	.	.	.	.	.	.	.	.	.	.
.	.	.	24d#\JJ	.	.	.	24dd#\JJ	.	.	.	.	.	.	.	.	.	.	.	.	.	.
8BB/J	.	.	24B\LL	.	16f#/	.	24b\LL	.	.	.	.	.	.	.	.	.	.	.	.	.	.
.	.	.	24d#\	.	.	.	24dd#\	.	.	.	.	.	.	.	.	.	.	.	.	.	.
.	.	.	.	.	16b/JJ)	.	.	.	.	.	.	.	.	.	.	.	.	.	.	.	.
.	.	.	24f#\JJ	.	.	.	24ff#\JJ	.	.	.	.	.	.	.	.	.	.	.	.	.	.
!	!	!	!	!	!	!	!	!	!	!	!	!	!	!	!LO:LB:g=original	!	!	!LO:LB:g=original	!	!LO:LB:g=original	!
=35	=35	=35	=35	=35	=35	=35	=35	=35	=35	=35	=35	=35	=35	=35	=35	=35	=35	=35	=35	=35	=35
16E\LL	.	.	24g#\LL	.	(16e/LL	.	24gg#\LL	.	4E\	-ra-	4B\	-ra-	4g#\	-ra-	4ee\	-ra-	.	4e/	4b\	4ee\	4gg#\
.	.	.	24b\	.	.	.	24bb\	.	.	.	.	.	.	.	.	.	.	.	.	.	.
16B\	.	.	.	.	16b/	.	.	.	.	.	.	.	.	.	.	.	.	.	.	.	.
.	.	.	24a\JJ	.	.	.	24aa\JJ	.	.	.	.	.	.	.	.	.	.	.	.	.	.
16G#\	.	.	24g#\LL	.	16e/	.	24gg#\LL	.	.	.	.	.	.	.	.	.	.	.	.	.	.
.	.	.	24f#\	.	.	.	24ff#\	.	.	.	.	.	.	.	.	.	.	.	.	.	.
16E\JJ	.	.	.	.	16b/JJ)	.	.	.	.	.	.	.	.	.	.	.	.	.	.	.	.
.	.	.	24e\JJ	.	.	.	24ee\JJ	.	.	.	.	.	.	.	.	.	.	.	.	.	.
16F#\LL	.	.	24d#X\LL	.	(16a/LL	.	24dd#X\LL	.	4B\	-mus	4d#X\	-mus	4b\	-mus	4ff#\	-mus	.	4b\	4b\	4ff#\	4aa\
.	.	.	24f#\	.	.	.	24ff#\	.	.	.	.	.	.	.	.	.	.	.	.	.	.
16E\	.	.	.	.	16b/	.	.	.	.	.	.	.	.	.	.	.	.	.	.	.	.
.	.	.	24e\JJ	.	.	.	24ee\JJ	.	.	.	.	.	.	.	.	.	.	.	.	.	.
!	!	!	!LO:LB:g=original	!	!	!	!	!	!	!	!	!	!	!	!	!	!	!	!	!	!
16D#X\	.	.	24d#\LL	.	16a/	.	24dd#\LL	.	.	.	.	.	.	.	.	.	.	.	.	.	.
.	.	.	24c#\	.	.	.	24cc#\	.	.	.	.	.	.	.	.	.	.	.	.	.	.
16BB\JJ	.	.	.	.	16b/JJ)	.	.	.	.	.	.	.	.	.	.	.	.	.	.	.	.
.	.	.	24B\JJ	.	.	.	24b\JJ	.	.	.	.	.	.	.	.	.	.	.	.	.	.
!	!	!	!	!	!	!	!	!	!	!	!	!	!	!	!	!	!	!	!	!	!LO:LB:g=original
=36	=36	=36	=36	=36	=36	=36	=36	=36	=36	=36	=36	=36	=36	=36	=36	=36	=36	=36	=36	=36	=36
*	*	*	*	*	*	*	*	*	*	*	*	*	*	*	*	*	*	*	*	*2\right	*
!	!	!	!LO:TX:t=P:problem=mixed beam	!	!	!	!	!	!	!	!LO:TX:t=P:problem=mixed beam	!	!	!	!	!	!	!	!	!	!
16.e\LL	n3_ 8_	.	16.e\LL|	.	16.ee\LL|	.	16.ggn\LL|	.	16.e\LL	Ge-	16.e\LL	Ge-	4gn\	Ge-	4ee\	Ge-	.	2E/	2e/	2ee\	2ggn\
32E\K	.	.	32E/K|	.	32ee\K|	.	32gg\K|	.	32E\K	.	32E/K	.	.	.	.	.	.	.	.	.	.
16.Gn\	.	.	16.Gn/|	.	16.ee\|	.	16.gg\|	.	16.Gn\	.	16.Gn/	.	.	.	.	.	.	.	.	.	.
32B\JJk	.	.	32B/JJk|	.	32ee\JJk|	.	32gg\JJk|	.	32B\JJk	.	32B/JJk	.	.	.	.	.	.	.	.	.	.
16.e\LL	.	.	16.e\LL|	.	16.ee\LL|	.	16.gg\LL|	.	16.e\LL	.	16.e\LL	-men-	4g\	-men-	4ee\	-men-	.	.	.	.	.
32d#X\K	.	.	32d#X\K|	.	32ee\K|	.	32gg\K|	.	32d#X\K	.	32d#X\K	.	.	.	.	.	.	.	.	.	.
16.e\	.	.	16.e\|	.	16.ee\|	.	16.gg\|	.	16.e\	-men-	16.e\	.	.	.	.	.	.	.	.	.	.
32dn\JJk	.	.	32dn\JJk|	.	32ee\JJk|	.	32gg\JJk|	.	32dn\JJk	.	32dn\JJk	.	.	.	.	.	.	.	.	.	.
!	!	!	!	!	!	!	!LO:LB:g=original	!	!LO:LB:g=original	!	!	!	!	!	!	!	!	!	!	!	!
=37	=37	=37	=37	=37	=37	=37	=37	=37	=37	=37	=37	=37	=37	=37	=37	=37	=37	=37	=37	=37	=37
!	!	!	!	!	!	!	!LO:SIC:v:s=16.ggn\LL|	!	!	!	!LO:TX:t=P:problem=mixed beam	!	!LO:SIC:v:s=4.gn\	!	!	!	!	!	!	!	!LO:SIC:v:s=2ggn\
16.cn\LL	.	.	16.cn/LL|	.	16.ee\LL|	.	16.gg#\LL|	.	16.cn\LL	.	16.cn\LL	.	4.g#\	-tes	4.ee\	-tes	.	2E/	2e/	2ee\	2gg#\
!	!	!	!	!	!	!	!LO:SIC:v:s=32gg\K|	!	!	!	!	!	!	!	!	!	!	!	!	!	!
32Cny\K	.	.	32C#/K|	.	32ee\K|	.	32gg#\K|	.	32Cny\K	.	32Cny/K	.	.	.	.	.	.	.	.	.	.
!	!	!	!	!	!	!	!LO:SIC:v:s=16.gg\|	!	!	!	!	!	!	!	!	!	!	!	!	!	!
16.E\	.	.	16.E/|	.	16.ee\|	.	16.gg#\|	.	16.E\	-tes	16.E/	-tes	.	.	.	.	.	.	.	.	.
!	!	!	!	!	!	!	!LO:SIC:v:s=32gg\JJk|	!	!	!	!	!	!	!	!	!	!	!	!	!	!
32Gn\JJk	.	.	32Gn/JJk|	.	32ee\JJk|	.	32gg#\JJk|	.	32Gn\JJk	.	32Gn/JJk	.	.	.	.	.	.	.	.	.	.
!	!	!	!	!	!	!	!LO:SIC:v:s=16.gg\LL|	!	!	!	!	!	!	!	!	!	!	!	!	!	!
16.cn\LL	.	.	16.cn\LL|	.	16.ee\LL|	.	16.gg#\LL|	.	16.cn\LL	et	16.cn\LL	et	.	.	.	.	.	.	.	.	.
!	!	!	!	!	!	!	!LO:SIC:v:s=32gg\K|	!	!	!	!	!	!	!	!	!	!	!	!	!	!
32B\K	.	.	32B\K|	.	32ee\K|	.	32gg#\K|	.	32B\K	.	32B\K	.	.	.	.	.	.	.	.	.	.
!	!	!	!	!	!	!	!LO:SIC:v:s=16.gg\|	!	!	!	!	!	!LO:SIC:v:s=8g\	!	!	!	!	!	!	!	!
16.c\	.	.	16.c\|	.	16.ee\|	.	16.gg#\|	.	16.c\	.	16.c\	.	8g#\	et	8ee\	et	.	.	.	.	.
!	!	!	!	!	!	!	!LO:SIC:v:s=32gg\JJk|	!	!	!	!	!	!	!	!	!	!	!	!	!	!
32B\JJk	.	.	32B\JJk|	.	32ee\JJk|	.	32gg#\JJk|	.	32B\JJk	.	32B\JJk	.	.	.	.	.	.	.	.	.	.
!	!	!	!	!	!LO:LB:g=original	!	!	!	!	!	!LO:LB:g=original	!	!	!	!	!	!	!	!	!	!
=38	=38	=38	=38	=38	=38	=38	=38	=38	=38	=38	=38	=38	=38	=38	=38	=38	=38	=38	=38	=38	=38
*	*	*	*	*	*	*	*	*	*2\right	*	*2\right	*	*2\right	*	*2\right	*	*	*	*	*	*
!	!	!	!	!	!	!	!LO:SIC:v:s=16.ggn\LL|	!	!	!	!	!	!LO:SIC:v:s=2gn\	!	!	!	!	!	!	!	!LO:SIC:v:s=2ggn\
16.A#X\LL	.	.	16.A#X/LL|	.	16.ee\LL|	.	16.gg#\LL|	.	2A#X\	flen-	2c#\	Flen-	2g#\	flen-	2ee\	flen-	.	2E/	2e/	2ee\	2gg#\
!	!	!	!	!	!	!	!LO:SIC:v:s=32gg\K|	!	!	!	!	!	!	!	!	!	!	!	!	!	!
32c#X\K	.	.	32c#X/K|	.	32ee\K|	.	32gg#\K|	.	.	.	.	.	.	.	.	.	.	.	.	.	.
!	!	!	!	!	!	!	!LO:SIC:v:s=16.gg\|	!	!	!	!	!	!	!	!	!	!	!	!	!	!
16.A#\	.	.	16.A#/|	.	16.ee\|	.	16.gg#\|	.	.	.	.	.	.	.	.	.	.	.	.	.	.
!	!	!	!	!	!	!	!LO:SIC:v:s=32gg\JJk|	!	!	!	!	!	!	!	!	!	!	!	!	!	!
32c#\JJk	.	.	32c#/JJk|	.	32ee\JJk|	.	32gg#\JJk|	.	.	.	.	.	.	.	.	.	.	.	.	.	.
!	!	!	!	!	!	!	!LO:SIC:v:s=16.gg\LL|	!	!	!	!	!	!	!	!	!	!	!	!	!	!
16.A#\LL	x	.	16.A#/LL|	.	16.ee\LL|	.	16.gg#\LL|	.	.	.	.	.	.	.	.	.	.	.	.	.	.
!	!	!	!	!	!	!	!LO:SIC:v:s=32gg\K|	!	!	!	!	!	!	!	!	!	!	!	!	!	!
32c#\K	.	.	32c#/K|	.	32ee\K|	.	32gg#\K|	.	.	.	.	.	.	.	.	.	.	.	.	.	.
!	!	!	!	!	!	!	!LO:SIC:v:s=16.gg\|	!	!	!	!	!	!	!	!	!	!	!	!	!	!
16.A#\	.	.	16.A#/|	.	16.ee\|	.	16.gg#\|	.	.	.	.	.	.	.	.	.	.	.	.	.	.
!	!	!	!	!	!	!	!LO:SIC:v:s=32gg\JJk|	!	!	!	!	!	!	!	!	!	!	!	!	!	!
32c#\JJk	.	.	32c#/JJk|	.	32ee\JJk|	.	32gg#\JJk|	.	.	.	.	.	.	.	.	.	.	.	.	.	.
=39	=39	=39	=39	=39	=39	=39	=39	=39	=39	=39	=39	=39	=39	=39	=39	=39	=39	=39	=39	=39	=39
!	!	!	!	!	!	!	!	!	!	!	!	!	!	!	!	!	!	!LO:TX:a:t=d:color=grey	!LO:TX:a:t=d:color=grey	!	!
8B 8BB\	#	.	8d#X\	.	(32dd#X\LLL	.	(32ff#\LLL	.	8B\	-tes	8B\	-tes	8f#\	-tes	8dd#X\	-tes.	.	8b@ 8a\	8a\	8dd#X\	32ff#\LLL
.	.	.	.	.	32bb\	.	32bb\	.	.	.	.	.	.	.	.	.	.	.	.	.	32bb\
.	.	.	.	.	32aa#X\	.	32aa#X\	.	.	.	.	.	.	.	.	.	.	.	.	.	32aa#X\
.	.	.	.	.	32gg#\JJJ	.	32gg#X\JJJ	.	.	.	.	.	.	.	.	.	.	.	.	.	32gg#X\JJJ
8r	.	.	8r	.	32ff#\LLL	.	32ff#\LLL	.	8r	.	8r	.	8r	.	8r	.	.	8r	8r	8r	32ff#\LLL
.	.	.	.	.	32ee\	.	32ee\	.	.	.	.	.	.	.	.	.	.	.	.	.	32ee\
.	.	.	.	.	32dd#X\	.	32dd#X\	.	.	.	.	.	.	.	.	.	.	.	.	.	32dd#X\
.	.	.	.	.	32cc#\JJJ)	.	32cc#\JJJ)	.	.	.	.	.	.	.	.	.	.	.	.	.	32cc#\JJJ
16B\LL	8	.	16b\LL	.	(16b/LL	.	(16b/LL	.	4r	.	4r	.	4r	.	4r	.	.	4r	4r	4r	8b\
32A#X\L	8	.	(32a#X\L	.	32a#X/L	.	32a#X/L	.	.	.	.	.	.	.	.	.	.	.	.	.	.
32G#\JJJ	8	.	32g#\JJJ	.	32g#/JJJ	.	32g#/JJJ	.	.	.	.	.	.	.	.	.	.	.	.	.	.
32F#\LLL	8	.	32f#\LLL	.	32f#/LLL	.	32f#/LLL	.	.	.	.	.	.	.	.	.	.	.	.	.	8r
32E\	8	.	32e\	.	32e/	.	32e/	.	.	.	.	.	.	.	.	.	.	.	.	.	.
32D#X\	8	.	32d#X\	.	32d#X/	.	32d#X/	.	.	.	.	.	.	.	.	.	.	.	.	.	.
32C#\JJJ	8	.	32c#\JJJ)	.	32c#/JJJ)	.	32c#/JJJ)	.	.	.	.	.	.	.	.	.	.	.	.	.	.
=40	=40	=40	=40	=40	=40	=40	=40	=40	=40	=40	=40	=40	=40	=40	=40	=40	=40	=40	=40	=40	=40
!	!	!	!	!	!	!	!	!	!LO:TX:a:t=10	!	!LO:TX:a:t=10	!	!LO:TX:a:t=10	!	!LO:TX:a:t=9	!	!	!LO:TX:a:t=5	!	!LO:TX:a:t=10	!
16BB\LL	8_	.	16B\LL	.	(16B/LL	.	(16B/LL	.	0r	.	0r	.	0r	.	0r	.	.	0r	0r	0r	4r
32C#\L	.	.	(32c#\L	.	32c#/L	.	32c#/L	.	.	.	.	.	.	.	.	.	.	.	.	.	.
32D#X\JJJ	.	.	32d#X\JJJ	.	32d#X/JJJ	.	32d#X/JJJ	.	.	.	.	.	.	.	.	.	.	.	.	.	.
!LO:LB:g=original	!	!	!	!	!	!	!	!	!	!	!	!	!	!	!	!	!	!	!	!	!
32E\LLL	8_	.	32e\LLL	.	32e/LLL	.	32e/LLL	.	.	.	.	.	.	.	.	.	.	.	.	.	.
32F#\	.	.	32f#\	.	32f#/	.	32f#/	.	.	.	.	.	.	.	.	.	.	.	.	.	.
32G#\	.	.	32g#\	.	32g#/	.	32g#/	.	.	.	.	.	.	.	.	.	.	.	.	.	.
32A\JJJ	.	.	32a\JJJ)	.	32a/JJJ)	.	32a/JJJ)	.	.	.	.	.	.	.	.	.	.	.	.	.	.
!LO:TX:t=P:problem=mixed beam	!	!	!LO:TX:t=P:problem=mixed beam	!	!	!	!	!	!	!	!	!	!	!	!	!	!	!	!	!	!
32B\LLL	.	.	(32b\LLL	.	(16b\LL	.	(16b\LL	.	.	.	.	.	.	.	.	.	.	.	.	.	16b\LL
32BB/	.	.	32B/	.	.	.	.	.	.	.	.	.	.	.	.	.	.	.	.	.	.
32C#/	.	.	32c#/	.	32cc#\L	.	32cc#\L	.	.	.	.	.	.	.	.	.	.	.	.	.	32cc#\L
32D#X/JJJ	.	.	32d#X/JJJ)	.	32dd#X\JJJ	.	32dd#X\JJJ	.	.	.	.	.	.	.	.	.	.	.	.	.	32dd#X\JJJ
32E\LLL	.	.	(32e\LLL	.	32ee\LLL	.	32ee\LLL	.	.	.	.	.	.	.	.	.	.	.	.	.	32ee\LLL
32F#\	.	.	32f#\	.	32ff#\	.	32ff#\	.	.	.	.	.	.	.	.	.	.	.	.	.	32ff#\
32G#\	.	.	32g#\	.	32gg#\	.	32gg#\	.	.	.	.	.	.	.	.	.	.	.	.	.	32gg#\
32A#X\JJJ	.	.	32a#X\JJJ)	.	32aa#X\JJJ)	.	32aa#X\JJJ)	.	.	.	.	.	.	.	.	.	.	.	.	.	32aa#X\JJJ
!	!	!	!LO:LB:g=original	!	!	!	!LO:LB:g=original	!	!	!	!	!	!	!	!	!	!	!	!	!	!
=41	=41	=41	=41	=41	=41	=41	=41	=41	=41	=41	=41	=41	=41	=41	=41	=41	=41	=41	=41	=41	=41
!LO:TX:t=P:problem=mixed beam	!	!	!LO:TX:t=P:problem=mixed beam	!	!LO:TX:t=P:problem=mixed beam	!	!LO:TX:t=P:problem=mixed beam	!	!	!	!	!	!	!	!	!	!	!	!	!	!
16B\LL	8	.	16b\LL	.	(16bb\LL	.	(16bb\LL	.	.	.	.	.	.	.	.	.	.	.	.	.	16bb\LL
16BB/	.	.	16B/	.	16B/	.	16B/	.	.	.	.	.	.	.	.	.	.	.	.	.	16b\
16BB/	.	.	16B/	.	16B/	.	16B/	.	.	.	.	.	.	.	.	.	.	.	.	.	16b\
16BB/JJ	.	.	16B/JJ	.	16B/JJ)	.	16B/JJ)	.	.	.	.	.	.	.	.	.	.	.	.	.	16b\JJ
8BB/	.	.	8B/	.	8B/	.	8B/	.	.	.	.	.	.	.	.	.	.	.	.	.	8b\
8r	.	.	8r	.	8r	.	8r	.	.	.	.	.	.	.	.	.	.	.	.	.	8r
=42	=42	=42	=42	=42	=42	=42	=42	=42	=42	=42	=42	=42	=42	=42	=42	=42	=42	=42	=42	=42	=42
!LO:TX:a:t=8	!	!	!	!	!LO:TX:b:i:t=dolce	!	!LO:TX:b:i:t=dol&colon;	!	!	!	!	!	!	!	!	!	!	!	!	!	!LO:TX:a:t=8
0r	.	.	4B/	.	16f#/LL	.	8.b\L	.	.	.	.	.	.	.	.	.	.	.	.	.	0r
.	.	.	.	.	16an/	.	.	.	.	.	.	.	.	.	.	.	.	.	.	.	.
.	.	.	.	.	16f#/	.	.	.	.	.	.	.	.	.	.	.	.	.	.	.	.
.	.	.	.	.	16a/JJ	.	16dd#X\Jk	.	.	.	.	.	.	.	.	.	.	.	.	.	.
.	.	.	4e\	.	16g#/LL	.	(16ff#\LL	.	.	.	.	.	.	.	.	.	.	.	.	.	.
.	.	.	.	.	16b/	.	16ee\JJ)	.	.	.	.	.	.	.	.	.	.	.	.	.	.
.	.	.	.	.	16g#/	.	16r	.	.	.	.	.	.	.	.	.	.	.	.	.	.
.	.	.	.	.	16b/JJ	.	16b\	.	.	.	.	.	.	.	.	.	.	.	.	.	.
=43	=43	=43	=43	=43	=43	=43	=43	=43	=43	=43	=43	=43	=43	=43	=43	=43	=43	=43	=43	=43	=43
.	.	.	4B/	.	16f#/LL	.	(16aa\LL	p	.	.	.	.	.	.	.	.	.	.	.	.	.
.	.	.	.	.	16d#X/	.	16ff#\	.	.	.	.	.	.	.	.	.	.	.	.	.	.
.	.	.	.	.	16f#/	.	16aa\	.	.	.	.	.	.	.	.	.	.	.	.	.	.
.	.	.	.	.	16d#/JJ	.	16ff#\JJ)	.	.	.	.	.	.	.	.	.	.	.	.	.	.
.	.	.	8E/	.	16e/LL	.	8gg#\	.	.	.	.	.	.	.	.	.	.	.	.	.	.
!	!	!	!	!	!LO:TX:a:t=h	!	!	!	!	!	!	!	!	!	!	!	!	!	!	!	!
.	.	.	.	.	16B/	.	.	.	.	.	.	.	.	.	.	.	.	.	.	.	.
.	.	.	8r	.	16e/	.	16r	.	.	.	.	.	.	.	.	.	.	.	.	.	.
.	.	.	.	.	16g#/JJ	.	16b\	.	.	.	.	.	.	.	.	.	.	.	.	.	.
!	!	!	!	!	!LO:LB:g=original	!	!	!	!	!	!	!	!	!	!	!	!	!	!	!	!
=44	=44	=44	=44	=44	=44	=44	=44	=44	=44	=44	=44	=44	=44	=44	=44	=44	=44	=44	=44	=44	=44
.	.	.	4B/	.	(16f#/LL	.	8.b\L	.	0r	.	0r	.	0r	.	0r	.	.	2r	2r	0r	.
.	.	.	.	.	16a/	.	.	.	.	.	.	.	.	.	.	.	.	.	.	.	.
.	.	.	.	.	16f#/	.	.	.	.	.	.	.	.	.	.	.	.	.	.	.	.
.	.	.	.	.	16a/JJ)	.	16dd#X\Jk	.	.	.	.	.	.	.	.	.	.	.	.	.	.
.	.	.	4e\	.	(16g#/LL	.	(16ff#\LL	.	.	.	.	.	.	.	.	.	.	.	.	.	.
.	.	.	.	.	16b/	.	16ee\JJ)	.	.	.	.	.	.	.	.	.	.	.	.	.	.
.	.	.	.	.	16g#/	.	16r	.	.	.	.	.	.	.	.	.	.	.	.	.	.
.	.	.	.	.	16b/JJ)	.	16b\	.	.	.	.	.	.	.	.	.	.	.	.	.	.
=45	=45	=45	=45	=45	=45	=45	=45	=45	=45	=45	=45	=45	=45	=45	=45	=45	=45	=45	=45	=45	=45
.	.	.	2B/	.	(16f#/LL	.	(16aa\LL	.	.	.	.	.	.	.	.	.	.	4b\	2b/	.	.
.	.	.	.	.	16d#X/	.	16ff#\	.	.	.	.	.	.	.	.	.	.	.	.	.	.
.	.	.	.	.	16f#/	.	16aa\	.	.	.	.	.	.	.	.	.	.	.	.	.	.
.	.	.	.	.	16d#/JJ)	.	16ff#\JJ)	.	.	.	.	.	.	.	.	.	.	.	.	.	.
.	.	.	.	.	(16e/LL	.	(16gg#\LL	.	.	.	.	.	.	.	.	.	.	4e/	.	.	.
.	.	.	.	.	16g#/	.	16ee\	.	.	.	.	.	.	.	.	.	.	.	.	.	.
.	.	.	.	.	16e/	.	16gg#\	.	.	.	.	.	.	.	.	.	.	.	.	.	.
.	.	.	.	.	16g#/JJ)	.	16ee\JJ)	.	.	.	.	.	.	.	.	.	.	.	.	.	.
!	!	!	!	!	!	!	!	!	!	!	!	!	!	!	!	!	!	!	!LO:LB:g=original	!	!
=46	=46	=46	=46	=46	=46	=46	=46	=46	=46	=46	=46	=46	=46	=46	=46	=46	=46	=46	=46	=46	=46
*	*	*	*	*	*	*	*	*	*	*	*	*	*	*	*	*	*	*	*2\right	*	*
0r	.	.	2B/	.	(16f#/LL	.	(16dd#X\LL	.	.	.	.	.	.	.	.	.	.	4b\	2b\	.	0r
.	.	.	.	.	16a/	.	16ff#\	.	.	.	.	.	.	.	.	.	.	.	.	.	.
.	.	.	.	.	16f#/	.	16dd#\	.	.	.	.	.	.	.	.	.	.	.	.	.	.
.	.	.	.	.	16a/JJ)	.	16ff#\JJ)	.	.	.	.	.	.	.	.	.	.	.	.	.	.
.	.	.	.	.	(16g#/LL	.	(16ee\LL	.	.	.	.	.	.	.	.	.	.	4e/	.	.	.
.	.	.	.	.	16b/	.	16gg#\	.	.	.	.	.	.	.	.	.	.	.	.	.	.
.	.	.	.	.	16g#/	.	16ee\	.	.	.	.	.	.	.	.	.	.	.	.	.	.
.	.	.	.	.	16b/JJ)	.	16gg#\JJ)	.	.	.	.	.	.	.	.	.	.	.	.	.	.
=47	=47	=47	=47	=47	=47	=47	=47	=47	=47	=47	=47	=47	=47	=47	=47	=47	=47	=47	=47	=47	=47
.	.	.	2B/	.	(16d#X/LL	.	(16aa\LL	.	.	.	.	.	.	.	.	.	.	4b\	2b\	.	.
.	.	.	.	.	16f#/	.	16ff#\	.	.	.	.	.	.	.	.	.	.	.	.	.	.
.	.	.	.	.	16d#/	.	16aa\	.	.	.	.	.	.	.	.	.	.	.	.	.	.
.	.	.	.	.	16f#/JJ)	.	16ff#\JJ)	.	.	.	.	.	.	.	.	.	.	.	.	.	.
!	!	!	!	!	!	!	!LO:LB:g=original	!	!	!	!	!	!	!	!	!	!	!	!	!	!
.	.	.	.	.	(16e/LL	.	(16gg#\LL	.	.	.	.	.	.	.	.	.	.	4e/	.	.	.
.	.	.	.	.	16g#/	.	16ee\	.	.	.	.	.	.	.	.	.	.	.	.	.	.
.	.	.	.	.	16e/	.	16gg#\	.	.	.	.	.	.	.	.	.	.	.	.	.	.
.	.	.	.	.	16g#/JJ)	.	16ee\JJ)	.	.	.	.	.	.	.	.	.	.	.	.	.	.
=48	=48	=48	=48	=48	=48	=48	=48	=48	=48	=48	=48	=48	=48	=48	=48	=48	=48	=48	=48	=48	=48
.	.	.	4B/	.	(16f#/LL	.	(16dd#X\LL	.	1r	.	1r	.	1r	.	2r	.	.	4b\	4b\	1r	.
.	.	.	.	.	16a/	.	16ff#\	.	.	.	.	.	.	.	.	.	.	.	.	.	.
.	.	.	.	.	16f#/	.	16dd#\	.	.	.	.	.	.	.	.	.	.	.	.	.	.
.	.	.	.	.	16a/JJ)	.	16ff#\JJ)	.	.	.	.	.	.	.	.	.	.	.	.	.	.
.	.	.	8e\	.	8g#/	.	8ee\	.	.	.	.	.	.	.	.	.	.	8e/	8b\	.	.
.	.	.	8r	.	8r	.	8r	.	.	.	.	.	.	.	.	.	.	8r	8r	.	.
=49	=49	=49	=49	=49	=49	=49	=49	=49	=49	=49	=49	=49	=49	=49	=49	=49	=49	=49	=49	=49	=49
!	!	!	!	!	!	!	!	!	!	!	!	!	!	!	!	!	!	!	!LO:TX:a:t=1.	!	!
.	.	.	2r	.	2r	.	8ee\L|	.	.	.	.	.	.	.	8ee\	in	.	2r	2r	.	.
.	.	.	.	.	.	.	8ee\|	.	.	.	.	.	.	.	8ee\	chac	.	.	.	.	.
.	.	.	.	.	.	.	8ee\|	.	.	.	.	.	.	.	8ee\	lah-	.	.	.	.	.
.	.	.	.	.	.	.	8ee\J|	.	.	.	.	.	.	.	8ee\	-ri-	.	.	.	.	.
!	!	!	!	!	!	!	!	!	!	!	!	!	!LO:LB:g=original	!	!	!	!	!LO:LB:g=original	!	!	!
=50	=50	=50	=50	=50	=50	=50	=50	=50	=50	=50	=50	=50	=50	=50	=50	=50	=50	=50	=50	=50	=50
*	*	*	*	*	*	*	*tuplet	*	*	*	*	*	*	*	*	*	*	*	*	*	*
!	!	!	!	!	!	!	!LO:TUP:a:problem=klamra łukowa	!	!	!	!	!	!	!	!	!	!	!	!	!	!
8A\L	3	.	8a\L	.	16a/KL	f	24cc#\LL	.	8A\	ma-	4c#\	ma-	2a\	ma-	4cc#\	-ma-	.	4A/	2f#/	2a/	4cc#\
.	.	.	.	.	.	.	24ee\	.	.	.	.	.	.	.	.	.	.	.	.	.	.
.	.	.	.	.	8a/	.	.	.	.	.	.	.	.	.	.	.	.	.	.	.	.
.	.	.	.	.	.	.	24dd#X\JJ	.	.	.	.	.	.	.	.	.	.	.	.	.	.
!	!	!	!	!	!	!	!LO:TUP:a:problem=klamra łukowa	!	!	!	!	!	!	!	!	!	!	!	!	!	!
8F#\J	.	.	8f#\	.	.	.	24cc#\LL	.	8F#\	.	.	.	.	.	.	.	.	.	.	.	.
.	.	.	.	.	.	.	24dd#\	.	.	.	.	.	.	.	.	.	.	.	.	.	.
.	.	.	.	.	4a/	.	.	.	.	.	.	.	.	.	.	.	.	.	.	.	.
.	.	.	.	.	.	.	24ee\JJ	.	.	.	.	.	.	.	.	.	.	.	.	.	.
*	*	*	*	*	*	*	*Xtuplet	*	*	*	*	*	*	*	*	*	*	*	*	*	*
8B\L	#	.	8b\	.	.	.	24dd#X\LL	.	8B\	.	4d#X\	.	.	.	4dd#X\	-rum	.	4a\	.	.	4dd#X\
.	.	.	.	.	.	.	24ff#\	.	.	.	.	.	.	.	.	.	.	.	.	.	.
.	.	.	.	.	.	.	24ee\JJ	.	.	.	.	.	.	.	.	.	.	.	.	.	.
8A\J	.	.	8a\J	.	.	.	24dd#\LL	.	8A\	.	.	.	.	.	.	.	.	.	.	.	.
.	.	.	.	.	.	.	24ee\	.	.	.	.	.	.	.	.	.	.	.	.	.	.
.	.	.	.	.	16a/Jk	.	.	.	.	.	.	.	.	.	.	.	.	.	.	.	.
.	.	.	.	.	.	.	24ff#\JJ	.	.	.	.	.	.	.	.	.	.	.	.	.	.
=51	=51	=51	=51	=51	=51	=51	=51	=51	=51	=51	=51	=51	=51	=51	=51	=51	=51	=51	=51	=51	=51
8G#\L	6	.	8g#\L	.	16b\KL	.	24ee\LL	.	8G#\	.	4e\	.	2b\	.	4ee\	val-	.	4b\	4b\	4b\	4ee\
.	.	.	.	.	.	.	24gg#\	.	.	.	.	.	.	.	.	.	.	.	.	.	.
.	.	.	.	.	8b\	.	.	.	.	.	.	.	.	.	.	.	.	.	.	.	.
.	.	.	.	.	.	.	24ff#\JJ	.	.	.	.	.	.	.	.	.	.	.	.	.	.
8E\	.	.	8e\	.	.	.	24ee\LL	.	8E\	.	.	.	.	.	.	.	.	.	.	.	.
.	.	.	.	.	.	.	24ff#\	.	.	.	.	.	.	.	.	.	.	.	.	.	.
.	.	.	.	.	4b\	.	.	.	.	.	.	.	.	.	.	.	.	.	.	.	.
.	.	.	.	.	.	.	24gg#\JJ	.	.	.	.	.	.	.	.	.	.	.	.	.	.
8D#X\	3	.	8d#X\	.	.	.	24ff#\LL	.	8D#X\	.	4d#X\	.	.	.	4ff#\	.	.	4r	4r	4dd#X\	4ff#\
.	.	.	.	.	.	.	24aa\	.	.	.	.	.	.	.	.	.	.	.	.	.	.
.	.	.	.	.	.	.	24gg#\JJ	.	.	.	.	.	.	.	.	.	.	.	.	.	.
8BB\J	.	.	8B\J	.	.	.	24ff#\LL	.	8BB/	.	.	.	.	.	.	.	.	.	.	.	.
.	.	.	.	.	.	.	24gg#\	.	.	.	.	.	.	.	.	.	.	.	.	.	.
.	.	.	.	.	16b\Jk	.	.	.	.	.	.	.	.	.	.	.	.	.	.	.	.
.	.	.	.	.	.	.	24aa\JJ	.	.	.	.	.	.	.	.	.	.	.	.	.	.
!	!	!	!	!	!	!	!	!	!LO:LB:g=original	!	!	!	!	!	!LO:LB:g=original	!	!	!	!	!	!LO:LB:g=original
=52	=52	=52	=52	=52	=52	=52	=52	=52	=52	=52	=52	=52	=52	=52	=52	=52	=52	=52	=52	=52	=52
4E\	3	.	8B/	.	16g#/LL	.	16gg#\LL|	.	8E\	-rum	8e\	-rum	8b\	-rum	8gg#\	-le	.	4e/	4b\	8ee\	8gg#\
.	.	.	.	.	16a/	.	16aa\|	.	.	.	.	.	.	.	.	.	.	.	.	.	.
.	.	.	8r	.	16b/	.	(16bb\	.	8r	.	8r	.	8r	.	8r	.	.	.	.	8r	4r
.	.	.	.	.	16d#X/JJ	.	16dd#X\JJ)	.	.	.	.	.	.	.	.	.	.	.	.	.	.
8r	.	.	8r	.	16e/LL|	.	16ee\LL|	.	8r	.	8r	.	8r	.	8r	.	.	4r	4r	8r	.
.	.	.	.	.	16f#/|	.	16ff#\|	.	.	.	.	.	.	.	.	.	.	.	.	.	.
!	!	!	!LO:LB:g=original	!	!	!	!	!	!	!	!	!	!	!	!	!	!	!	!	!	!
16r	.	.	16r	.	16g#/|	.	(16gg#\	.	16r	.	16r	.	16r	.	16r	.	.	.	.	16r	16r
16G#\	3	.	16e\	.	16g#/JJ|	.	16b\JJ)	.	16E\	val-	16B\	val-	16g#\	val-	16b\	val-	.	.	.	16g#/	16b\
=53	=53	=53	=53	=53	=53	=53	=53	=53	=53	=53	=53	=53	=53	=53	=53	=53	=53	=53	=53	=53	=53
!LO:TX:t=P:problem=mixed beam	!	!	!	!	!	!	!	!	!	!	!	!	!	!	!	!	!	!	!	!	!
8A\L	.	.	8e\L|	.	(16a\LL	.	16cc#\LL	.	8A\	.	8c#\L	.	2a\	.	16cc#\LL	.	.	4r	4r	8a/L	8cc#\L
.	.	.	.	.	16cc#\	.	16aa\	.	.	.	.	.	.	.	16aa\	.	.	.	.	.	.
8F#\	.	.	8e\J|	.	16b\	.	16gg#\	.	8F#\	.	16B\L	.	.	.	16gg#\	.	.	.	.	8b/J	16gg#\L
.	.	.	.	.	16a\JJ)	.	16ff#\JJ	.	.	.	16A\JJ	.	.	.	16ff#\JJ	.	.	.	.	.	16ff#\JJ
!	!	!	!	!	!LO:LB:g=original	!	!	!	!	!	!	!	!	!	!	!	!	!	!	!	!
8B\	4	.	16e\LL|	.	16b\LL	.	4ff#T\	.	8B\	.	4B\	.	.	.	4ff#T\	.	.	8b\L	8b\L	4b/	4ff#T\
.	.	.	16e\|	.	16dd#X\	.	.	.	.	.	.	.	.	.	.	.	.	.	.	.	.
8BB/J	#	.	16d#X\|	.	16b\	.	.	.	8BB/	.	.	.	.	.	.	.	.	8b\J	8b\J	.	.
.	.	.	16d#\JJ|	.	16dd#\JJ	.	.	.	.	.	.	.	.	.	.	.	.	.	.	.	.
!	!	!	!	!	!	!	!LO:LB:g=original	!	!	!	!	!	!	!	!	!	!	!	!	!LO:LB:g=original	!
=54	=54	=54	=54	=54	=54	=54	=54	=54	=54	=54	=54	=54	=54	=54	=54	=54	=54	=54	=54	=54	=54
4E\	.	.	4e\	.	4b 4g#\	.	4ee\	.	4E\	-le.	4B\	-le.	4b\	-le	4ee\	-le	.	4e/	4b\	4g#/	4ee\
4r	.	.	4r	.	4r	.	4r	.	4r	.	4r	.	4r	.	4r	.	.	4r	4r	4r	4r
!LO:LB:g=original	!	!	!	!	!	!	!	!	!	!	!LO:LB:g=original	!	!	!	!	!	!	!	!	!	!
=55	=55	=55	=55	=55	=55	=55	=55	=55	=55	=55	=55	=55	=55	=55	=55	=55	=55	=55	=55	=55	=55
!LO:TX:t=P:problem=mixed beam	!	!	!	!	!	!	!	!	!	!	!	!	!	!	!	!	!	!	!	!	!
!LO:TX:b:i:t=Solo	!	!	!LO:TX:t=P:problem=mixed beam	!	!LO:DY:t=p	!	!	!	!LO:TX:a:t=8	!	!LO:TX:a:t=8	!	!	!	!	!	!	!LO:TX:a:t=6	!LO:TX:a:t=6	!LO:TX:a:t=8	!LO:TX:a:t=8
8A\L	.	.	8a\L	.	4a/	p	4a/	p	0r	.	0r	.	0r	.	4a\	E-	.	0r	0r	0r	0r
8AA/	.	.	8A/	.	.	.	.	.	.	.	.	.	.	.	.	.	.	.	.	.	.
8C#/	.	.	8c#/	.	8a/L	.	4ee\	.	.	.	.	.	.	.	4ee\	-ia	.	.	.	.	.
8E/J	.	.	8e/J	.	8e/J	.	.	.	.	.	.	.	.	.	.	.	.	.	.	.	.
=56	=56	=56	=56	=56	=56	=56	=56	=56	=56	=56	=56	=56	=56	=56	=56	=56	=56	=56	=56	=56	=56
!LO:TX:t=P:problem=mixed beam	!	!	!LO:TX:t=P:problem=mixed beam	!	!	!	!	!	!	!	!	!	!	!	!	!	!	!	!	!	!
8A\L	.	.	8a\L	.	8e/L	.	(16ddn\LL	.	.	.	.	.	.	.	16ddn\LL	er-	.	.	.	.	.
.	.	.	.	.	.	.	16cc#\J)	.	.	.	.	.	.	.	16cc#\JJ	.	.	.	.	.	.
8AA/J	.	.	8A/J	.	8e/J	.	8cc#\J	.	.	.	.	.	.	.	8cc#\	-go	.	.	.	.	.
4r	.	.	4r	.	4r	.	(16ee\LL	.	.	.	.	.	.	.	(16ee\LL	er-	.	.	.	.	.
.	.	.	.	.	.	.	16cc#\	.	.	.	.	.	.	.	16cc#\)	.	.	.	.	.	.
.	.	.	.	.	.	.	16b\	.	.	.	.	.	.	.	(16b\	-go	.	.	.	.	.
.	.	.	.	.	.	.	16g#\JJ)	.	.	.	.	.	.	.	16g#\JJ)	.	.	.	.	.	.
=57	=57	=57	=57	=57	=57	=57	=57	=57	=57	=57	=57	=57	=57	=57	=57	=57	=57	=57	=57	=57	=57
8r	.	.	8r	.	8r	.	8a/L|	.	.	.	.	.	.	.	8a\	ad-	.	.	.	.	.
8c#\L	3	.	8c#\L	.	8e/L	.	8a/|	.	.	.	.	.	.	.	8a\	-vo-	.	.	.	.	.
8B\	3	.	8B\	.	8d/	.	8a/|	.	.	.	.	.	.	.	8a\	-ca-	.	.	.	.	.
8A\J	3	.	8A\J	.	8c#/J	.	8a/J|	.	.	.	.	.	.	.	8a\	-ta	.	.	.	.	.
=58	=58	=58	=58	=58	=58	=58	=58	=58	=58	=58	=58	=58	=58	=58	=58	=58	=58	=58	=58	=58	=58
*	*	*	*	*	*	*	*tuplet	*	*	*	*	*	*	*	*Xtuplet	*	*	*	*	*	*
!LO:TX:t=P:problem=mixed beam	!	!	!	!	!LO:TUP:b:problem=klamra łukowa	!	!LO:TUP:a:problem=klamra łukowa	!	!	!	!	!	!	!	!	!	!	!	!	!	!
8E\L	.	.	8e\L	.	24g#/LL	.	24b\LL	.	.	.	.	.	.	.	24b\LL	no-	.	.	.	.	.
.	.	.	.	.	24a/	.	24cc#\	.	.	.	.	.	.	.	24cc#\	.	.	.	.	.	.
.	.	.	.	.	24b/J	.	24dd\J	.	.	.	.	.	.	.	24dd\JJ	.	.	.	.	.	.
8AA/J	.	.	8e\J	.	8a/J	.	8cc#\J	.	.	.	.	.	.	.	8cc#\	-stra.	.	.	.	.	.
4r	.	.	4r	.	4r	.	(16a\LL	.	.	.	.	.	.	.	4r	.	.	.	.	.	.
.	.	.	.	.	.	.	16cc#\	.	.	.	.	.	.	.	.	.	.	.	.	.	.
.	.	.	.	.	.	.	16ee\	.	.	.	.	.	.	.	.	.	.	.	.	.	.
.	.	.	.	.	.	.	16aa\JJ)	.	.	.	.	.	.	.	.	.	.	.	.	.	.
!	!	!	!	!	!	!	!	!	!	!	!	!	!	!	!LO:LB:g=original	!	!	!	!	!	!
=59	=59	=59	=59	=59	=59	=59	=59	=59	=59	=59	=59	=59	=59	=59	=59	=59	=59	=59	=59	=59	=59
!LO:TX:t=P:problem=mixed beam	!	!	!	!	!	!	!	!	!	!	!	!	!	!	!	!	!	!	!	!	!
8D\L	.	.	4a 4d\	.	8dd\L	.	8ff#\L	.	0r	.	0r	.	0r	.	8ff#\	il-	.	1r	1r	0r	0r
8DD/J	.	.	.	.	8a\J	.	8dd\J	.	.	.	.	.	.	.	8dd\	-los	.	.	.	.	.
.	.	.	.	.	.	.	16qqbb/	.	.	.	.	.	.	.	.	.	.	.	.	.	.
8r	.	.	8r	.	8ff#\L	.	8aa\L	.	.	.	.	.	.	.	8aa\	il-	.	.	.	.	.
8D\	.	.	8a\	.	(16ee\L	.	16gg#\L	.	.	.	.	.	.	.	16gg#\LL	-los	.	.	.	.	.
.	.	.	.	.	16dd\JJ)	.	16ff#\JJ	.	.	.	.	.	.	.	16ff#\JJ	.	.	.	.	.	.
=60	=60	=60	=60	=60	=60	=60	=60	=60	=60	=60	=60	=60	=60	=60	=60	=60	=60	=60	=60	=60	=60
!LO:TX:t=P:problem=mixed beam	!	!	!	!	!LO:TX:a:t=d.	!	!	!	!	!	!	!	!	!	!	!	!	!	!	!	!
8A\L	.	.	8a\L	.	8dd\L	.	8ff#\L	.	.	.	.	.	.	.	8ff#\	tu-	.	.	.	.	.
!	!	!	!	!	!LO:TX:a:t=c.	!	!	!	!	!	!	!	!	!	!	!	!	!	!	!	!
8AA/	.	.	8a\J	.	8cc#\J	.	8ee\J	.	.	.	.	.	.	.	8ee\	-os	.	.	.	.	.
8C#/	.	.	4r	.	8r	.	8r	.	.	.	.	.	.	.	4r	.	.	.	.	.	.
8AA/J	.	.	.	.	16r	.	16r	.	.	.	.	.	.	.	.	.	.	.	.	.	.
!	!	!	!	!	!	!	!	!LO:DY:t=p.	!	!	!	!	!	!	!	!	!	!	!	!	!
.	.	.	.	.	16a/	.	16cc#\	p	.	.	.	.	.	.	.	.	.	.	.	.	.
=61	=61	=61	=61	=61	=61	=61	=61	=61	=61	=61	=61	=61	=61	=61	=61	=61	=61	=61	=61	=61	=61
!LO:TX:a:t=2	!	!	!	!	!LO:TX:b:i:t=dolce	!LO:DY:t=p	!LO:TX:a:t=dol.	!	!	!	!	!	!	!	!LO:TX:a:t=2	!	!	!	!	!	!
1r	.	.	4E/	.	16g#X/LL	p	16ee\KL	.	.	.	.	.	.	.	1r	.	.	4e/	4b\	.	.
.	.	.	.	.	16e/	.	8dd\	.	.	.	.	.	.	.	.	.	.	.	.	.	.
.	.	.	.	.	16g#/	.	.	.	.	.	.	.	.	.	.	.	.	.	.	.	.
.	.	.	.	.	16e/JJ	.	16cc#\Jk	.	.	.	.	.	.	.	.	.	.	.	.	.	.
.	.	.	4A/	.	16a/LL	.	16dd\KL	.	.	.	.	.	.	.	.	.	.	4a\	4cc#\	.	.
.	.	.	.	.	16e/	.	8cc#\	.	.	.	.	.	.	.	.	.	.	.	.	.	.
.	.	.	.	.	16a/	.	.	.	.	.	.	.	.	.	.	.	.	.	.	.	.
.	.	.	.	.	16e/JJ	.	16b\Jk	.	.	.	.	.	.	.	.	.	.	.	.	.	.
=62	=62	=62	=62	=62	=62	=62	=62	=62	=62	=62	=62	=62	=62	=62	=62	=62	=62	=62	=62	=62	=62
!	!	!	!LO:TX:t=P:problem=mixed beam	!	!	!	!	!	!	!	!	!	!	!	!	!	!	!	!	!	!
.	.	.	8e\L	.	4a/	.	(4cc#\	.	.	.	.	.	.	.	.	.	.	4a\	4cc#\	.	.
.	.	.	8B\	.	.	.	.	.	.	.	.	.	.	.	.	.	.	.	.	.	.
!	!	!	!	!	!	!	!LO:TX:t=P:problem=mixed beam	!	!	!	!	!	!	!	!	!	!	!	!	!	!
.	.	.	8E/J	.	8g#/	.	8b\L)	.	.	.	.	.	.	.	.	.	.	8e/	8b\	.	.
.	.	.	8r	.	8r	.	8e/J	.	.	.	.	.	.	.	.	.	.	8r	8r	.	.
!	!	!	!LO:LB:g=original	!	!	!	!	!	!	!	!	!	!	!	!	!	!	!	!LO:LB:g=original	!	!
=63	=63	=63	=63	=63	=63	=63	=63	=63	=63	=63	=63	=63	=63	=63	=63	=63	=63	=63	=63	=63	=63
*	*	*	*tuplet	*	*	*	*	*	*	*	*	*	*	*	*	*	*	*	*	*	*
!	!	!	!LO:TUP:a:problem=klamra łukowa	!	!	!LO:DY:t=for&colon;	!	!	!	!	!	!	!	!	!	!	!	!	!	!	!
8G#\L	5 3	.	24g#\LL	.	(16g#/LL	f	16dd\LL|	f	4G#\	Et	4e\	Et	4b\	et	4dd\	et	.	4e/	4b\	4b\	4dd\
.	.	.	24b\	.	.	.	.	.	.	.	.	.	.	.	.	.	.	.	.	.	.
.	.	.	.	.	16e/	.	16dd\|	.	.	.	.	.	.	.	.	.	.	.	.	.	.
.	.	.	24a\JJ	.	.	.	.	.	.	.	.	.	.	.	.	.	.	.	.	.	.
8G#\	.	.	(16g#\LL	.	16g#/	.	(16dd\	.	.	.	.	.	.	.	.	.	.	.	.	.	.
.	.	.	16b\JJ)	.	16e/JJ)	.	16ee\JJ)	.	.	.	.	.	.	.	.	.	.	.	.	.	.
!	!	!	!LO:TUP:a:problem=klamra łukowa	!	!	!	!	!	!	!	!	!	!	!	!	!	!	!	!	!	!LO:TX:a:t=c
8A\	.	.	24a\LL	.	(16a/LL	.	16cc#\LL|	.	8A\	Je-	8e\	Je-	8a\	Je-	8cc#\	Je-	.	4a\	4cc#\	4a\	4cc# 4a\
.	.	.	24cc#\	.	.	.	.	.	.	.	.	.	.	.	.	.	.	.	.	.	.
.	.	.	.	.	16e/	.	16cc#\|	.	.	.	.	.	.	.	.	.	.	.	.	.	.
.	.	.	24b\JJ	.	.	.	.	.	.	.	.	.	.	.	.	.	.	.	.	.	.
8A\J	.	.	16a\LL	.	16a/	.	(16cc#\	.	8A\	-sum	8e\	-sum	8a\	-sum	8cc#\	-sum	.	.	.	.	.
.	.	.	16cc#\JJ	.	16e/JJ)	.	16a\JJ)	.	.	.	.	.	.	.	.	.	.	.	.	.	.
!	!	!	!	!	!LO:LB:g=original	!	!LO:LB:g=original	!	!	!	!	!	!	!	!	!	!	!	!	!	!
=64	=64	=64	=64	=64	=64	=64	=64	=64	=64	=64	=64	=64	=64	=64	=64	=64	=64	=64	=64	=64	=64
!LO:TX:t=P:problem=mixed beam	!	!	!	!	!	!	!LO:TUP:b:problem=klamra łukowa	!	!	!	!	!	!	!	!	!	!	!	!	!	!
8E\L	.	.	16dd|\LL	.	(16d/LL	.	24g#/LL	.	8E\	be-	8e\	be-	8g#\	be-	8b\	be-	.	4e/	4b\	4g#/	4b\
.	.	.	.	.	.	.	24b/	.	.	.	.	.	.	.	.	.	.	.	.	.	.
.	.	.	16dd|\	.	16e/	.	.	.	.	.	.	.	.	.	.	.	.	.	.	.	.
.	.	.	.	.	.	.	24a/JJ	.	.	.	.	.	.	.	.	.	.	.	.	.	.
8E\	.	.	16dd|\	.	16d/	.	16g#/LL|	.	8E\	-ne-	8e\	-ne-	8g#\	-ne-	8b\	-ne-	.	.	.	.	.
.	.	.	16b|\JJ	.	16e/JJ)	.	16b/JJ|	.	.	.	.	.	.	.	.	.	.	.	.	.	.
!	!	!	!	!	!	!	!LO:TUP:b:problem=klamra łukowa	!	!	!	!	!	!	!	!	!	!	!	!	!	!
8AA/	.	.	16cc#|\LL	.	(16c#/LL	.	24a/LL	.	8AA/	-dic-	8e\	-dic-	8a\	-dic-	8cc#\	-dic-	.	4c#/	4a\	4a/	4cc#\
.	.	.	.	.	.	.	24cc#/	.	.	.	.	.	.	.	.	.	.	.	.	.	.
.	.	.	16cc#|\	.	16e/	.	.	.	.	.	.	.	.	.	.	.	.	.	.	.	.
.	.	.	.	.	.	.	24b/JJ	.	.	.	.	.	.	.	.	.	.	.	.	.	.
8AA/J	.	.	(16cc#\	.	16c#/	.	16a/LL|	.	8AA/	-tum	8e\	-tum	8a\	-tum	8cc#\	-tum	.	.	.	.	.
.	.	.	16a\JJ)	.	16e/JJ)	.	16cc#/JJ|	.	.	.	.	.	.	.	.	.	.	.	.	.	.
=65	=65	=65	=65	=65	=65	=65	=65	=65	=65	=65	=65	=65	=65	=65	=65	=65	=65	=65	=65	=65	=65
!	!	!	!LO:TUP:a:problem=klamra łukowa	!	!	!	!	!	!	!	!	!	!	!	!	!	!	!	!	!	!
8G#\L	.	.	24g#\LL	.	16g#/LL	.	16dd\LL|	.	4G#\	Fru-	4e\	Fruc-	4b\	et	4dd\	et	.	4e/	4b\	4b\	4dd\
.	.	.	24b\	.	.	.	.	.	.	.	.	.	.	.	.	.	.	.	.	.	.
.	.	.	.	.	16e/	.	16dd\|	.	.	.	.	.	.	.	.	.	.	.	.	.	.
.	.	.	24a\JJ	.	.	.	.	.	.	.	.	.	.	.	.	.	.	.	.	.	.
8G#\	.	.	(16g#\LL	.	16g#/	.	(16dd\	.	.	.	.	.	.	.	.	.	.	.	.	.	.
.	.	.	16b\JJ)	.	16e/JJ	.	16ee\JJ)	.	.	.	.	.	.	.	.	.	.	.	.	.	.
!	!	!	!LO:TUP:a:problem=klamra łukowa	!	!	!	!	!	!	!	!	!	!	!	!	!	!	!	!	!	!
8A\	.	.	24a\LL	.	16a/LL	.	16cc#\LL|	.	8A\	-ctum	8e\	-tum	8a\	Je-	8cc#\	Je-	.	4a\	4cc#\	4a\	4cc#\
.	.	.	24cc#\	.	.	.	.	.	.	.	.	.	.	.	.	.	.	.	.	.	.
.	.	.	.	.	16e/	.	16cc#\|	.	.	.	.	.	.	.	.	.	.	.	.	.	.
.	.	.	24b\JJ	.	.	.	.	.	.	.	.	.	.	.	.	.	.	.	.	.	.
8A\J	.	.	(16a\LL	.	16a/	.	(16cc#\	.	8A\	ven-	8e\	ven-	8a\	-sum	8cc#\	-sum	.	.	.	.	.
.	.	.	16cc#\JJ)	.	16e/JJ	.	16a\JJ)	.	.	.	.	.	.	.	.	.	.	.	.	.	.
!	!	!	!	!	!	!	!	!	!LO:LB:g=original	!	!	!	!LO:LB:g=original	!	!	!	!	!	!	!	!
=66	=66	=66	=66	=66	=66	=66	=66	=66	=66	=66	=66	=66	=66	=66	=66	=66	=66	=66	=66	=66	=66
!LO:TX:t=P:problem=mixed beam	!	!	!	!	!	!	!LO:TUP:b:problem=klamra łukowa	!	!	!	!	!	!	!	!	!	!	!	!	!	!
8E\L	.	.	16dd\LL	.	16d/LL	.	24g#/LL	.	8E\	-tris	8e\	-tris	8g#\	be-	8b\	be-	.	4e/	4b\	4g#/	4b\
.	.	.	.	.	.	.	24b/	.	.	.	.	.	.	.	.	.	.	.	.	.	.
.	.	.	16dd\	.	16e/	.	.	.	.	.	.	.	.	.	.	.	.	.	.	.	.
.	.	.	.	.	.	.	24a/JJ	.	.	.	.	.	.	.	.	.	.	.	.	.	.
8E\	.	.	16dd\	.	16d/	.	16g#/LL|	.	8E\	tu-	8e\	tu-	8g#\	-ne-	8b\	-ne-	.	.	.	.	.
.	.	.	16b\JJ	.	16e/JJ	.	16b/JJ|	.	.	.	.	.	.	.	.	.	.	.	.	.	.
8AA/	.	.	16cc#\LL	.	16c#/LL	.	16a\LL|	.	8AA/	-i	8e\	-i	8a\	-dic-	8cc#\	-dic-	.	4c#/	4a\	4a/	4cc#\
.	.	.	16cc#\	.	16e/	.	16cc#\|	.	.	.	.	.	.	.	.	.	.	.	.	.	.
8AA/J	.	.	16cc#\	.	16c#/	.	16ee\|	.	8AA/	Fru-	8e\	tui	8a\	-tum	8cc#\	-tum	.	.	.	.	.
.	.	.	16a\JJ	.	16e/JJ	.	16aa\JJ|	.	.	.	.	.	.	.	.	.	.	.	.	.	.
!LO:LB:g=original	!	!	!	!	!	!	!	!	!	!	!	!	!	!	!	!	!	!LO:LB:g=original	!	!	!
=67	=67	=67	=67	=67	=67	=67	=67	=67	=67	=67	=67	=67	=67	=67	=67	=67	=67	=67	=67	=67	=67
!LO:TX:t=P:problem=mixed beam	!	!	!	!	!	!	!LO:TX:t=P:problem=mixed beam	!	!	!	!	!	!	!	!	!	!	!	!	!	!
8D\L	.	.	16d/LL	.	(16dd\LL	.	(16ff#\LL	.	4.D\	-ctum	4.d\	Fru-	4.a\	Fru-	4.ff#\	Fru-	.	2A/	2a\	2dd\	2ff#\
.	.	.	16A/	.	16cc#\	.	16ee#X\	.	.	.	.	.	.	.	.	.	.	.	.	.	.
8DD/J	.	.	16d/	.	16dd\	.	16ff#\	.	.	.	.	.	.	.	.	.	.	.	.	.	.
.	.	.	16A/JJ	.	16a\JJ)	.	16a/JJ)	.	.	.	.	.	.	.	.	.	.	.	.	.	.
8r	.	.	16d/LL	.	16f#\LL|	.	16dd\LL|	.	.	.	.	.	.	.	.	.	.	.	.	.	.
.	.	.	16A/	.	16dd\|	.	16ff#\|	.	.	.	.	.	.	.	.	.	.	.	.	.	.
8D\	.	.	16d/	.	16ff#\|	.	16aa\|	.	8F#\	ven-	8d\	-ctum	8a\	-ctum	8ff#\	-ctum	.	.	.	.	.
.	.	.	16A/JJ	.	16dd\JJ|	.	16ff#\JJ|	.	.	.	.	.	.	.	.	.	.	.	.	.	.
!	!	!	!	!	!	!	!	!	!	!	!LO:LB:g=original	!	!	!	!LO:LB:g=original	!	!	!	!	!	!
=68	=68	=68	=68	=68	=68	=68	=68	=68	=68	=68	=68	=68	=68	=68	=68	=68	=68	=68	=68	=68	=68
*	*	*	*tremolo	*	*	*	*	*	*	*	*	*	*	*	*	*	*	*	*	*	*
8AA/L	.	.	16c#/LL	.	16cc#\LL	.	(16een\LL	.	4A\	-tris	4c#\	ven-	4a\	ven-	4ee\	ven-	.	8A/L	8a\L	2cc#\	2ee\
.	.	.	16A/	.	16ee\	.	16aa\)	.	.	.	.	.	.	.	.	.	.	.	.	.	.
16AA/L	.	.	16c#/	.	16a\	.	(16cc#\	.	.	.	.	.	.	.	.	.	.	16A/L	16a\L	.	.
16BB/JJ	.	.	16A/	.	16cc#\JJ	.	16ee\JJ)	.	.	.	.	.	.	.	.	.	.	16A/JJ	16a\JJ	.	.
8C#/L	.	.	16c#/	.	16c#/LL	.	16a\LL	.	4AA/	tu-	4c#\	-tris	4a\	-tris	4ee\	-tris	.	8A/L	8a\L	.	.
.	.	.	16A/	.	16e/	.	16cc#\	.	.	.	.	.	.	.	.	.	.	.	.	.	.
8AA/J	.	.	16c#/	.	16a/	.	16ee\	.	.	.	.	.	.	.	.	.	.	8A/J	8a\J	.	.
.	.	.	16A/JJ	.	16cc#/JJ	.	16aa\JJ	.	.	.	.	.	.	.	.	.	.	.	.	.	.
=69	=69	=69	=69	=69	=69	=69	=69	=69	=69	=69	=69	=69	=69	=69	=69	=69	=69	=69	=69	=69	=69
!LO:TX:t=P:problem=mixed beam	!	!	!	!	!	!	!LO:TX:t=P:problem=mixed beam	!	!	!	!	!	!	!	!	!	!	!	!	!	!
8D\L	.	.	16d/LL	.	16dd\LL	.	(16ff#\LL	.	4.D\	-i	4.d\	ven-	4.a\	tu-	4.ff#\	ven-	.	2A/	2a/	2dd\	2ff#\
.	.	.	16A/	.	16cc#\	.	16ee#X\	.	.	.	.	.	.	.	.	.	.	.	.	.	.
8DD/J	.	.	16d/	.	16dd\	.	16ff#\	.	.	.	.	.	.	.	.	.	.	.	.	.	.
.	.	.	16A/	.	16a\JJ	.	16a/JJ)	.	.	.	.	.	.	.	.	.	.	.	.	.	.
8r	.	.	16d/	.	16f#\LL	.	16dd\LL|	.	.	.	.	.	.	.	.	.	.	.	.	.	.
.	.	.	16A/	.	16dd\	.	16ff#\|	.	.	.	.	.	.	.	.	.	.	.	.	.	.
8D\	.	.	16d/	.	16ff#\	.	16aa\|	.	8F#\	tu-	8d\	-tris	8a\	-i	8ff#\	-tris	.	.	.	.	.
.	.	.	16A/JJ	.	16dd\JJ	.	16ff#\JJ|	.	.	.	.	.	.	.	.	.	.	.	.	.	.
!	!	!	!LO:LB:g=original	!	!	!	!	!	!	!	!	!	!	!	!	!	!	!	!	!	!
=70	=70	=70	=70	=70	=70	=70	=70	=70	=70	=70	=70	=70	=70	=70	=70	=70	=70	=70	=70	=70	=70
8AA/L	.	.	16c#/LL	.	16cc#\LL	.	(16een\LL	.	8A\	.	8c#\	tu-	8a\	no-	8ee\	tu-	.	4A/	4a\	4cc#\	4ee\
.	.	.	16A/	.	16ee\	.	16aa\)	.	.	.	.	.	.	.	.	.	.	.	.	.	.
16AA/L	.	.	16c#/	.	16a\	.	(16cc#\	.	8AA/	-i.	8c#\	-i	8a\	-bis	8ee\	-i.	.	.	.	.	.
16BB/JJ	.	.	16A/	.	16cc#\JJ	.	16ee\JJ)	.	.	.	.	.	.	.	.	.	.	.	.	.	.
8C#/L	.	.	16c#/	.	16c#/LL	.	(16a\LL	.	4r	.	4r	.	4r	.	4r	.	.	4r	4r	4r	4r
.	.	.	16A/	.	16a/	.	16cc#\	.	.	.	.	.	.	.	.	.	.	.	.	.	.
8AA/J	.	.	16c#/	.	16cc#/	.	16ee\	.	.	.	.	.	.	.	.	.	.	.	.	.	.
.	.	.	16A/JJ	.	16a/JJ	.	16cc#\JJ)	.	.	.	.	.	.	.	.	.	.	.	.	.	.
*	*	*	*Xtremolo	*	*	*	*	*	*	*	*	*	*	*	*	*	*	*	*	*	*
!	!	!	!	!	!	!	!	!	!	!	!	!	!	!	!	!	!	!	!	!	!LO:LB:g=original
=71	=71	=71	=71	=71	=71	=71	=71	=71	=71	=71	=71	=71	=71	=71	=71	=71	=71	=71	=71	=71	=71
8E\L	.	.	16e\KL	.	16b/LL	.	(16dd\LL	.	4E\	no-	4e\	no-	8b\	post	8dd\	no-	.	4e/	4b\	8b/L	8dd\L
.	.	.	8e\	.	16g#/	.	16ee\)	.	.	.	.	.	.	.	.	.	.	.	.	.	.
8G#\	.	.	.	.	16e/	.	(16b\	.	.	.	.	.	8g#\	.	8b\	.	.	.	.	8g#/J	8b\J
.	.	.	4e\	.	16g#/JJ	.	16ee\JJ)	.	.	.	.	.	.	.	.	.	.	.	.	.	.
!	!	!	!	!	!	!	!LO:LB:g=original	!	!	!	!	!	!	!	!	!	!	!	!	!	!
8A\J	.	.	.	.	16a/LL	.	(16dd\LL	.	8A\	-bis	8e\	-bis	8a\	hoc	8cc#\	-bis	.	4a\	4cc#\	8a/	8cc#\
.	.	.	.	.	16e/	.	16cc#\	.	.	.	.	.	.	.	.	.	.	.	.	.	.
8r	.	.	.	.	16cc#/	.	16b\	.	8r	.	8r	.	8r	.	8r	.	.	.	.	8r	8r
.	.	.	16e\Jk	.	16e/JJ	.	16a\JJ)	.	.	.	.	.	.	.	.	.	.	.	.	.	.
!	!	!	!	!	!LO:LB:g=original	!	!	!	!	!	!	!	!	!	!	!	!	!	!	!	!
=72	=72	=72	=72	=72	=72	=72	=72	=72	=72	=72	=72	=72	=72	=72	=72	=72	=72	=72	=72	=72	=72
!LO:TX:t=P:problem=mixed beam	!	!	!	!	!	!	!	!	!	!	!	!	!	!	!	!	!	!	!	!	!
8E\L	.	.	16e\KL	.	(16dd\LL	.	(16g#/LL	.	4E\	post	8d\L	post	4e\	post	8b\	post	.	4e/	4b\	8d/L	8b/L
.	.	.	8e\	.	16b\	.	16b/)	.	.	.	.	.	.	.	.	.	.	.	.	.	.
8EE/J	.	.	.	.	16g#\	.	(16e/	.	.	.	8B\J	.	.	.	8g#\	.	.	.	.	8e/J	8g#/J
.	.	.	4e\	.	16e\JJ)	.	16g#/JJ)	.	.	.	.	.	.	.	.	.	.	.	.	.	.
!	!	!	!	!	!LO:TX:t=P:problem=mixed beam	!	!	!	!	!	!	!	!	!	!	!	!	!	!	!	!
8AA/	.	.	.	.	16cc#\LL	.	16a/LL	.	8AA/	hoc	8c#\	hoc	8e\	hoc	8a\	hoc	.	4c#/	4a\	8e/	8a/
.	.	.	.	.	16a\	.	16cc#/	.	.	.	.	.	.	.	.	.	.	.	.	.	.
8r	.	.	.	.	16e/	.	16ee/	.	8r	.	8r	.	8r	.	8r	.	.	.	.	8r	8r
.	.	.	16e\Jk	.	16c#/JJ	.	16cc#/JJ	.	.	.	.	.	.	.	.	.	.	.	.	.	.
!	!	!	!	!	!	!	!	!	!LO:LB:g=original	!	!	!	!	!	!	!	!	!	!	!LO:LB:g=original	!
=73	=73	=73	=73	=73	=73	=73	=73	=73	=73	=73	=73	=73	=73	=73	=73	=73	=73	=73	=73	=73	=73
!LO:TX:t=P:problem=mixed beam	!	!	!	!	!	!	!	!	!LO:N:vis=2	!	!	!	!	!	!	!	!	!	!	!	!
8E\L	.	.	16e\KL	.	16b/LL	.	(16dd\LL	.	4r	.	4e\	post	8b\	pos	8dd\	post	.	4e/	4b\	8b\L	8dd\L
.	.	.	8e\	.	16g#/	.	16ee\	.	.	.	.	.	.	.	.	.	.	.	.	.	.
8G#\	.	.	.	.	16e/	.	16b\	.	.	.	.	.	8g#\	hoc	8b\	hoc	.	.	.	8g#\	8b\
.	.	.	4e\	.	16g#/JJ	.	16ee\JJ)	.	.	.	.	.	.	.	.	.	.	.	.	.	.
8A\	.	.	.	.	16a/LL	.	(16dd\LL	.	8A\	post	8e\	hoc	8a\	.	8cc#\	.	.	4a\	4cc#\	8a\	8cc#\
.	.	.	.	.	16e/	.	16cc#\	.	.	.	.	.	.	.	.	.	.	.	.	.	.
8AA/J	.	.	.	.	16cc#/	.	16b\	.	8A\	hoc ex-	8c#\	ex-	8e\	ex-	8a\	ex-	.	.	.	8cc#\J	8a\J
.	.	.	16e\Jk	.	16e/JJ	.	16a\JJ)	.	.	.	.	.	.	.	.	.	.	.	.	.	.
!	!	!	!	!	!	!	!	!	!	!	!	!	!LO:LB:g=original	!	!	!	!	!	!	!	!
=74	=74	=74	=74	=74	=74	=74	=74	=74	=74	=74	=74	=74	=74	=74	=74	=74	=74	=74	=74	=74	=74
!	!	!	!	!	!	!	!LO:TX:a:t=g	!	!	!	!	!	!	!	!	!	!	!	!	!	!
8E\L	.	.	16e\KL	.	16dd\LL	.	(16g#/LL	.	8E\	-il-	8d\	-il-	8e\	-il-	8b\	-il-	.	4e/	4b\	8dd\L	8b\L
.	.	.	8e\	.	16b\	.	16b/	.	.	.	.	.	.	.	.	.	.	.	.	.	.
8D\	.	.	.	.	16g#\	.	16e/	.	8E\	-li-	8B\	-li-	8e\	-li-	8g#\	-li-	.	.	.	8b\	8g#\
.	.	.	4e\	.	16e\JJ	.	16g#/JJ)	.	.	.	.	.	.	.	.	.	.	.	.	.	.
!	!	!	!	!	!	!	!	!	!	!	!LO:LB:g=original	!	!	!	!	!	!	!LO:TX:t=P:problem=mixed beam	!	!	!
8C#\	.	.	.	.	16c#/LL	.	(16a\LL	.	8AA/	-um	8c#\	-um	8e\	-um	8a\	-um	.	8c#/L	8a\L	8cc#\	8a\
.	.	.	.	.	16a/	.	16cc#\)	.	.	.	.	.	.	.	.	.	.	.	.	.	.
8D\J	.	.	.	.	16cc#/	.	16ee\|	.	8D\	o-	8f#\	o-	8b\	o-	8dd\	o-	.	8b\J	8dd\J	8b\J	8dd\J
.	.	.	16f#\Jk	.	16b/JJ	.	16dd\JJ|	.	.	.	.	.	.	.	.	.	.	.	.	.	.
!	!	!	!	!	!	!	!	!	!	!	!	!	!	!	!LO:LB:g=original	!	!	!	!LO:LB:g=original	!	!
=75	=75	=75	=75	=75	=75	=75	=75	=75	=75	=75	=75	=75	=75	=75	=75	=75	=75	=75	=75	=75	=75
!LO:TX:t=P:problem=mixed beam	!	!	!	!	!	!	!	!	!	!	!	!	!	!	!	!	!	!LO:TX:t=P:problem=mixed beam	!	!	!
8E\L	.	.	8e\L	.	8a/L|	.	8cc#\L|	.	8E\	-sten-	8e\	-sten-	8a\	-sten-	8cc#\	-sten-	.	8a\L	8cc#\L	8a/L	8cc#\L
8EE/J	.	.	8e\J	.	8g#/J|	.	8b\J|	.	8E\	-de	8e\	-de.	8g#\	-de	8b\	-de.	.	8e/J	8b\J	8g#/J	8b\J
4r	.	.	4r	.	4r	.	4r	.	4r	.	4r	.	4r	.	4r	.	.	4r	4r	4r	4r
!LO:LB:g=original	!	!	!	!	!	!	!	!	!	!	!	!	!	!	!	!	!	!	!	!	!
=76	=76	=76	=76	=76	=76	=76	=76	=76	=76	=76	=76	=76	=76	=76	=76	=76	=76	=76	=76	=76	=76
!	!	!	!	!	!	!	!	!	!	!	!	!	!	!	!	!	!	!	!	!LO:TX:a:t=4	!
!	!	!	!	!	!	!	!	!	!	!	!	!	!	!	!	!	!	!LO:TX:a:t=5	!LO:TX:a:t=5	!LO:TX:b:t=4	!LO:TX:a:t=4
8r	.	.	8r	.	4.e/	p	(4.ee 4.cc#\	.	8r	.	2e\	o	4.e\	O	4.cc#\	o	.	0r	0r	0r	0r
!	!	!	!	!LO:DY:t=p.	!	!	!	!	!	!	!	!	!	!	!	!	!	!	!	!	!
8AA/L	.	.	8A/L	p	.	.	.	.	8AA/L	o	.	.	.	.	.	.	.	.	.	.	.
8C#/	.	.	8c#/	.	.	.	.	.	8C#/	.	.	.	.	.	.	.	.	.	.	.	.
.	.	.	.	.	.	.	16qqdd/LL	.	.	.	.	.	.	.	32qqdd/LLL	.	.	.	.	.	.
.	.	.	.	.	.	.	16qqcc#/JJ	.	.	.	.	.	.	.	32qqcc#/JJJ	.	.	.	.	.	.
8D/J	.	.	8d/J	.	16d/LL	.	16b/LL	.	8D/J	.	.	.	16d\LL	.	16b\LL	.	.	.	.	.	.
.	.	.	.	.	16c#/JJ	.	16a/JJ)	.	.	.	.	.	16c#\JJ	.	16a\JJ	.	.	.	.	.	.
=77	=77	=77	=77	=77	=77	=77	=77	=77	=77	=77	=77	=77	=77	=77	=77	=77	=77	=77	=77	=77	=77
4E\	.	.	4e\	.	4c#/	.	4a/	.	4E\	Cle-	4e\	Cle-	4c#/	Cle-	4a\	cle-	.	.	.	.	.
4EE/	.	.	4e\	.	4B/	.	4g#/	.	4E\	-mens	4e\	-mens	4B/	-mens	4g#\	-mens	.	.	.	.	.
=78	=78	=78	=78	=78	=78	=78	=78	=78	=78	=78	=78	=78	=78	=78	=78	=78	=78	=78	=78	=78	=78
8r	.	.	8r	.	4.f#/	.	(4.dd\	.	8r	.	8r	.	(4.f#\	O	(4.dd\	o	.	.	.	.	.
8E\L	.	.	8G#/L	.	.	.	.	.	8E\L	o	8G#X/L	o	.	.	.	.	.	.	.	.	.
8F#\	.	.	8A/	.	.	.	.	.	8F#\	.	8A/	.	.	.	.	.	.	.	.	.	.
.	.	.	.	.	.	.	16qqee/LL	.	.	.	.	.	.	.	32qqee/LLL	.	.	.	.	.	.
.	.	.	.	.	.	.	16qqdd/JJ	.	.	.	.	.	.	.	32qqdd/JJJ	.	.	.	.	.	.
8G#\J	.	.	8B/J	.	(16e/LL	.	16cc#\LL	.	8G#\J	.	8B/J	.	16e\LL	.	16cc#\LL	.	.	.	.	.	.
.	.	.	.	.	16d/JJ)	.	16b\JJ)	.	.	.	.	.	16d\JJ)	.	16b\JJ)	.	.	.	.	.	.
=79	=79	=79	=79	=79	=79	=79	=79	=79	=79	=79	=79	=79	=79	=79	=79	=79	=79	=79	=79	=79	=79
4G#\	.	.	4B/	.	4d/	.	4b\	.	4G#\	pi-	4B\	pi-	4d\	pi-	4b\	pi-	.	.	.	.	.
4A\	.	.	4c#/	.	4c#/	.	4a/	.	4A\	-a	4c#\	-a	4c#\	-a	4a\	-a.	.	.	.	.	.
!	!	!	!	!	!	!	!	!	!LO:LB:g=original	!	!	!	!	!	!	!	!	!	!	!	!
=80	=80	=80	=80	=80	=80	=80	=80	=80	=80	=80	=80	=80	=80	=80	=80	=80	=80	=80	=80	=80	=80
!	!	!	!	!	!	!LO:DY:t=f.	!	!	!	!	!	!	!	!	!	!	!	!	!	!	!
8D\	.	.	8.a\L	.	8.dd\L	f	8.ff#\L	f	4r	.	4r	.	4r	.	4r	.	.	2r	2r	4r	4r
8r	.	.	.	.	.	.	.	.	.	.	.	.	.	.	.	.	.	.	.	.	.
.	.	.	16g#\Jk	.	16ee\Jk	.	16gg#\Jk	.	.	.	.	.	.	.	.	.	.	.	.	.	.
8r	.	.	16a\LL	.	16ff#\LL	.	16aa\LL|	.	8r	.	8r	.	8r	.	8r	.	.	.	.	8r	8r
.	.	.	16g#\	.	16ee\	.	16gg#\|	.	.	.	.	.	.	.	.	.	.	.	.	.	.
8A\	.	.	16f#\	.	16dd\	.	16ff#\|	.	8A\	o	8e\	o	8cc#\	O	8ee\	o	.	.	.	8cc#\	8ee\
.	.	.	16e\JJ	.	16cc#\JJ	.	16ee\JJ|	.	.	.	.	.	.	.	.	.	.	.	.	.	.
!	!	!	!	!	!	!	!	!	!	!	!LO:LB:g=original	!	!	!	!	!	!	!	!	!	!
=81	=81	=81	=81	=81	=81	=81	=81	=81	=81	=81	=81	=81	=81	=81	=81	=81	=81	=81	=81	=81	=81
8G#\L	.	.	4e\	.	4cc#\	.	4ee\	.	8G#\L	dul-	4e\	dul-	4cc#\	dul-	4ee\	dul-	.	4r	4r	4cc#\	4ee\
8B\	.	.	.	.	.	.	.	.	8B\J	.	.	.	.	.	.	.	.	.	.	.	.
8E\	.	.	4e\	.	4bT\	.	4ddT\	.	8E\L	-cis	4e\	-cis	4b\	-cis	4dd\	-cis	.	4e/	4b\	4b\	4dd\
8G#\J	.	.	.	.	.	.	.	.	8G#\J	.	.	.	.	.	.	.	.	.	.	.	.
!	!	!	!	!	!	!	!LO:LB:g=original	!	!	!	!	!	!	!	!	!	!	!	!	!	!
=82	=82	=82	=82	=82	=82	=82	=82	=82	=82	=82	=82	=82	=82	=82	=82	=82	=82	=82	=82	=82	=82
!LO:TX:t=P:problem=mixed beam	!	!	!	!	!	!	!	!	!	!	!	!	!	!	!	!	!	!	!	!	!
8A\L	.	.	8e\L	.	8a/L	.	(16cc#\LL	.	8A\	vir-	8e\	vir-	16a\LL	vir-	16cc#\LL	vir-	.	8a\	8cc#\	8a/L	16cc#\LL
.	.	.	.	.	.	.	16b\)	.	.	.	.	.	16g#\JJ	.	16b\JJ	.	.	.	.	.	16b\
8D\	.	.	16d\L	.	16f#/L	.	(16dd\	.	16F#\	-go	16f#\	-go	16f#\LL	-go	16dd\	-go	.	8r	8r	8b/J	16dd\
.	.	.	16f#\JJ	.	16d/JJ	.	16b\JJ)	.	16D\	ma-	16f#\	Ma-	16d\JJ	.	16b\	.	.	.	.	.	16b\JJ
!	!	!	!LO:LB:g=original	!	!	!	!	!	!	!	!	!	!LO:LB:g=original	!	!	!	!	!	!	!	!
8E\	.	.	8e\L	.	8c#/L	.	8a/L	.	4E\	-ri-	4e\	-ri-	8c#/	Ma-	8a\	Ma-	.	8c#/L	8a\L	8a/L	8a/L
8EE/J	.	.	8e\J	.	8B/J	.	8g#/J	.	.	.	.	.	8B/	-ri-	8g#\	-ri-	.	8e/J	8b\J	8g#/J	8b/J
!	!	!	!	!	!LO:LB:g=original	!	!	!	!	!	!	!	!	!	!LO:LB:g=original	!	!	!LO:LB:g=original	!	!	!
=83	=83	=83	=83	=83	=83	=83	=83	=83	=83	=83	=83	=83	=83	=83	=83	=83	=83	=83	=83	=83	=83
4AA/	.	.	4e\	.	8c#/	.	8a/	.	8AA/	-a	8e\	-a	8c#\	-a	8a\	-a	.	8c#/	8a\	8a/	8cc#\
.	.	.	.	.	8r	.	16r	.	8r	.	8r	.	8r	.	8r	.	.	8r	8r	8r	8r
.	.	.	.	.	.	.	16e/	p	.	.	.	.	.	.	.	.	.	.	.	.	.
4r	.	.	4r	.	16ryy	.	(16f#/LL	.	4r	.	4r	.	4r	.	4r	.	.	4r	4r	4r	4r
.	.	.	.	.	16r	.	16g#/	.	.	.	.	.	.	.	.	.	.	.	.	.	.
.	.	.	.	.	16c#/LL	.	16a/	.	.	.	.	.	.	.	.	.	.	.	.	.	.
.	.	.	.	.	16G#/JJ	.	16b/JJ)	.	.	.	.	.	.	.	.	.	.	.	.	.	.
!	!	!	!	!	!	!	!	!	!	!	!	!	!	!	!	!	!	!	!	!	!LO:LB:g=original
=84	=84	=84	=84	=84	=84	=84	=84	=84	=84	=84	=84	=84	=84	=84	=84	=84	=84	=84	=84	=84	=84
!LO:TX:a:t=5	!	!	!	!	!	!	!	!	!LO:TX:a:t=5	!	!	!	!LO:TX:a:t=4	!	!LO:TX:a:t=4	!	!	!LO:TX:a:t=5	!LO:TX:a:t=5	!LO:TX:a:t=5	!LO:TX:a:t=5
0r	.	.	8r	.	16A/LL	.	4cc#\	.	0r	.	0r	.	0r	.	0r	.	.	0r	0r	0r	0r
.	.	.	.	.	16e/	.	.	.	.	.	.	.	.	.	.	.	.	.	.	.	.
.	.	.	8A/L	.	16A/	.	.	.	.	.	.	.	.	.	.	.	.	.	.	.	.
.	.	.	.	.	16e/JJ	.	.	.	.	.	.	.	.	.	.	.	.	.	.	.	.
.	.	.	8c#/	.	16B/LL	.	(16ee\LL	.	.	.	.	.	.	.	.	.	.	.	.	.	.
.	.	.	.	.	16e/	.	16cc#\	.	.	.	.	.	.	.	.	.	.	.	.	.	.
.	.	.	8d/J	.	16d/	.	16b\	.	.	.	.	.	.	.	.	.	.	.	.	.	.
.	.	.	.	.	16e/JJ	.	16a\JJ)	.	.	.	.	.	.	.	.	.	.	.	.	.	.
=85	=85	=85	=85	=85	=85	=85	=85	=85	=85	=85	=85	=85	=85	=85	=85	=85	=85	=85	=85	=85	=85
.	.	.	8e\L	.	16c#/LL	.	4a/	.	.	.	.	.	.	.	.	.	.	.	.	.	.
.	.	.	.	.	16e/	.	.	.	.	.	.	.	.	.	.	.	.	.	.	.	.
.	.	.	8B\J	.	16c#/	.	.	.	.	.	.	.	.	.	.	.	.	.	.	.	.
.	.	.	.	.	16e/JJ	.	.	.	.	.	.	.	.	.	.	.	.	.	.	.	.
.	.	.	4E/	.	16B/LL	.	(16g#/LL	.	.	.	.	.	.	.	.	.	.	.	.	.	.
.	.	.	.	.	16c#/	.	16a/	.	.	.	.	.	.	.	.	.	.	.	.	.	.
.	.	.	.	.	16G#/	.	16b/	.	.	.	.	.	.	.	.	.	.	.	.	.	.
.	.	.	.	.	16A/JJ	.	16cc#/JJ)	.	.	.	.	.	.	.	.	.	.	.	.	.	.
=86	=86	=86	=86	=86	=86	=86	=86	=86	=86	=86	=86	=86	=86	=86	=86	=86	=86	=86	=86	=86	=86
.	.	.	8r	.	16B/LL	.	4dd\	.	.	.	.	.	.	.	.	.	.	.	.	.	.
.	.	.	.	.	16e/	.	.	.	.	.	.	.	.	.	.	.	.	.	.	.	.
.	.	.	8E/L	.	16B/	.	.	.	.	.	.	.	.	.	.	.	.	.	.	.	.
.	.	.	.	.	16e/JJ	.	.	.	.	.	.	.	.	.	.	.	.	.	.	.	.
.	.	.	8F#/	.	16c#/LL	.	(16ee\LL	.	.	.	.	.	.	.	.	.	.	.	.	.	.
.	.	.	.	.	16B/	.	16dd\	.	.	.	.	.	.	.	.	.	.	.	.	.	.
.	.	.	8G#/J	.	16e/	.	16cc#\	.	.	.	.	.	.	.	.	.	.	.	.	.	.
.	.	.	.	.	16d/JJ	.	16b\JJ)	.	.	.	.	.	.	.	.	.	.	.	.	.	.
=87	=87	=87	=87	=87	=87	=87	=87	=87	=87	=87	=87	=87	=87	=87	=87	=87	=87	=87	=87	=87	=87
!	!	!	!LO:TX:t=P:problem=mixed beam	!	!	!	!	!	!	!	!	!	!	!	!	!	!	!	!	!	!
.	.	.	8A/L	.	16d/LL	.	4b\	.	.	.	.	.	.	.	.	.	.	.	.	.	.
.	.	.	.	.	16e/	.	.	.	.	.	.	.	.	.	.	.	.	.	.	.	.
.	.	.	8a\J	.	16d/	.	.	.	.	.	.	.	.	.	.	.	.	.	.	.	.
.	.	.	.	.	16e/JJ	.	.	.	.	.	.	.	.	.	.	.	.	.	.	.	.
.	.	.	4A/	.	16A/LL	.	8a/L	.	.	.	.	.	.	.	.	.	.	.	.	.	.
.	.	.	.	.	16c#/	.	.	.	.	.	.	.	.	.	.	.	.	.	.	.	.
.	.	.	.	.	16e/	.	8cc#/J	.	.	.	.	.	.	.	.	.	.	.	.	.	.
.	.	.	.	.	16a/JJ	.	.	.	.	.	.	.	.	.	.	.	.	.	.	.	.
=88	=88	=88	=88	=88	=88	=88	=88	=88	=88	=88	=88	=88	=88	=88	=88	=88	=88	=88	=88	=88	=88
!	!	!	!	!	!	!LO:HP:t=cres&colon;	!	!	!	!	!	!	!	!	!	!	!	!	!	!	!
2r	.	.	8a 8d\	.	16b\LL	<	16dd\LL	.	2r	.	2r	.	4r	.	4r	.	.	2r	2r	2r	2r
.	.	.	.	.	16a\	.	16cc#\	.	.	.	.	.	.	.	.	.	.	.	.	.	.
.	.	.	8r	.	16b\	.	16dd\	.	.	.	.	.	.	.	.	.	.	.	.	.	.
.	.	.	.	.	16cc#\JJ	.	16ee\JJ	.	.	.	.	.	.	.	.	.	.	.	.	.	.
.	.	.	4r	.	16dd\LL	.	16ff#\LL	.	.	.	.	.	8r	.	8r	.	.	.	.	.	.
.	.	.	.	.	16ee\	.	16gg#\	.	.	.	.	.	.	.	.	.	.	.	.	.	.
.	.	.	.	.	16ff#\	.	16aa\	.	.	.	.	.	8dd\	o	8ff#\	o	.	.	.	.	.
.	.	.	.	.	16dd\JJ	.	16ff#\JJ	.	.	.	.	.	.	.	.	.	.	.	.	.	.
=89	=89	=89	=89	=89	=89	=89	=89	=89	=89	=89	=89	=89	=89	=89	=89	=89	=89	=89	=89	=89	=89
!	!	!	!	!	!	!LO:DY:t=for&colon;	!	!	!	!	!	!	!	!	!	!	!	!	!	!	!
8r	.	.	8r	.	4dd\	f	4ff#\	.	8r	.	8r	.	4dd\	dul-	4ff#\	dul-	.	4r	4r	8r	8r
8E\L	.	.	8g#\L	.	.	.	.	.	8E\	o	8G#/	o	.	.	.	.	.	.	.	8e/L	8g#/L
8F#\	.	.	8a\	.	8cc#\L	.	8ee\L	.	8F#\	dul-	8A\	dul-	8cc#\	-cis	8ee\	.	.	8r	8r	8f#/	8a/
8G#\J	.	.	8b\J	.	8b\J	.	8dd\J	.	8G#\	-ci	8B\	-cis	8b\	vir-	8dd\	-cis	.	8e/	8b\	8g#/J	8b/J
!	!	!	!	!	!	!	!	!	!	!	!	!	!	!	!	!	!	!	!	!LO:LB:g=original	!
=90	=90	=90	=90	=90	=90	=90	=90	=90	=90	=90	=90	=90	=90	=90	=90	=90	=90	=90	=90	=90	=90
!	!	!	!	!	!LO:TX:t=P:problem=mixed beam	!	!	!	!	!	!	!	!	!	!	!	!	!	!	!	!
8A\L	.	.	8a\L	.	16a\LL	.	(16cc#\LL	.	8A\	vir-	8e\	vir-	16a\LL	-go	(16cc#\LL	vir-	.	4a\	4cc#\	8a/L	8cc#\L
.	.	.	.	.	16cc#\	.	16ee\)	.	.	.	.	.	16cc#\JJ	.	16ee\JJ)	.	.	.	.	.	.
8C#\	.	.	8e\	.	16c#/	.	(16a\	.	8D\	-go	16c#\LL	-go	4e\	Ma-	(16a\LL	-go	.	.	.	8cc#/J	8ee\
.	.	.	.	.	16e/	.	16cc#\JJ)	.	.	.	16e\JJ	.	.	.	16cc#\JJ)	.	.	.	.	.	.
8D\	.	.	8f#\	.	16d/	.	16b\LL|	.	8E\	Ma-	16d\LL	Ma-	.	.	(16b\LL	ma-	.	4e/	4b\	8b/L	8dd\
.	.	.	.	.	16f#/	.	16dd\|	.	.	.	16f#\JJ	.	.	.	16dd\JJ)	.	.	.	.	.	.
8E\J	.	.	16e\L	.	16B/	.	16g#\|	.	8E\	-ri-	16B\LL	-ri-	8e\	-ri-	16g#\LL	-ri-	.	.	.	8g#/J	8b\J
.	.	.	16e\JJ	.	16d/JJ	.	16b\JJ|	.	.	.	16d\JJ	.	.	.	16b\JJ	.	.	.	.	.	.
!LO:LB:g=original	!	!	!	!	!LO:LB:g=original	!	!	!	!LO:LB:g=original	!	!LO:LB:g=original	!	!	!	!	!	!	!	!	!	!
=91	=91	=91	=91	=91	=91	=91	=91	=91	=91	=91	=91	=91	=91	=91	=91	=91	=91	=91	=91	=91	=91
!LO:TX:a:i:t=pedal	!	!	!	!	!	!	!	!	!	!	!	!	!	!	!	!	!	!	!	!	!
8AA/	.	.	8A/L|	.	(16c#/LL	.	8a/	.	8AA/	-a	8c#\	-a	8e\	-a	8a\	-a	.	4c#/	4a\	8a/	8a/
.	.	.	.	.	16e/	.	.	.	.	.	.	.	.	.	.	.	.	.	.	.	.
8r	.	.	8A/|	.	16c#/	.	16r	.	8r	.	8r	.	8r	.	8r	.	.	.	.	8r	8r
.	.	.	.	.	16e/JJ)	.	16cc#\	.	.	.	.	.	.	.	.	.	.	.	.	.	.
4EE/	.	.	8G#X/|	.	16d/LL	.	16ee\LL|	.	4r	.	4r	.	4r	.	4r	.	.	4e/	4b\	4r	4ee\
.	.	.	.	.	16e/	.	16ee\JJ|	.	.	.	.	.	.	.	.	.	.	.	.	.	.
.	.	.	8G#/J|	.	16d/	.	(32ee\LLL	.	.	.	.	.	.	.	.	.	.	.	.	.	.
.	.	.	.	.	.	.	32dd\	.	.	.	.	.	.	.	.	.	.	.	.	.	.
.	.	.	.	.	16e/JJ	.	32cc#\	.	.	.	.	.	.	.	.	.	.	.	.	.	.
.	.	.	.	.	.	.	32b\JJJ)	.	.	.	.	.	.	.	.	.	.	.	.	.	.
!	!	!	!	!	!	!	!LO:PB:g=original	!	!	!	!	!	!	!	!	!	!	!	!	!	!
=92	=92	=92	=92	=92	=92	=92	=92	=92	=92	=92	=92	=92	=92	=92	=92	=92	=92	=92	=92	=92	=92
!	!	!	!	!	!	!	!	!	!LO:TX:a:t=2	!	!LO:TX:a:t=2	!	!LO:TX:a:t=2	!	!LO:TX:a:t=2	!	!	!	!	!LO:TX:a:t=3	!
8AA/	.	.	8A/L|	.	16c#/LL	.	8ee\L|	.	1r	.	1r	.	1r	.	1r	.	.	4c#/	4a\	1r	2ee\
.	.	.	.	.	16e/	.	.	.	.	.	.	.	.	.	.	.	.	.	.	.	.
8r	.	.	8A/|	.	16c#/	.	8ee\J|	.	.	.	.	.	.	.	.	.	.	.	.	.	.
.	.	.	.	.	16e/JJ	.	.	.	.	.	.	.	.	.	.	.	.	.	.	.	.
4EE/	.	.	8G#/|	.	16d/LL	.	(16ee\LL	.	.	.	.	.	.	.	.	.	.	4e/	4b\	.	.
.	.	.	.	.	16e/	.	16dd\	.	.	.	.	.	.	.	.	.	.	.	.	.	.
.	.	.	8G#/J|	.	16d/	.	16cc#\	.	.	.	.	.	.	.	.	.	.	.	.	.	.
.	.	.	.	.	16e/JJ	.	16b\JJ)	.	.	.	.	.	.	.	.	.	.	.	.	.	.
=93	=93	=93	=93	=93	=93	=93	=93	=93	=93	=93	=93	=93	=93	=93	=93	=93	=93	=93	=93	=93	=93
!LO:TX:t=P:problem=mixed beam	!	!	!LO:TX:t=P:problem=mixed beam	!	!	!	!LO:TX:t=P:problem=takt nieczytelny	!	!	!	!	!	!	!	!	!	!	!	!	!	!
8AA/L	.	.	8A/L	.	16c#/LL	.	2ryy	.	.	.	.	.	.	.	.	.	.	2r	2r	.	4ee\
.	.	.	.	.	16e/	.	.	.	.	.	.	.	.	.	.	.	.	.	.	.	.
8A\	.	.	8a\	.	16c#/	.	.	.	.	.	.	.	.	.	.	.	.	.	.	.	.
.	.	.	.	.	16e/JJ	.	.	.	.	.	.	.	.	.	.	.	.	.	.	.	.
8AA/J	.	.	8A/J	.	8c#/	.	.	.	.	.	.	.	.	.	.	.	.	.	.	.	4r
8r	.	.	8r	.	8r	.	.	.	.	.	.	.	.	.	.	.	.	.	.	.	.
=94	=94	=94	=94	=94	=94	=94	=94	=94	=94	=94	=94	=94	=94	=94	=94	=94	=94	=94	=94	=94	=94
!	!	!	!LO:TX:a:t=1.	!	!LO:TX:a:t=1.	!	!LO:TX:a:t=1	!	!	!	!	!	!	!	!	!	!	!	!	!	!LO:TX:b:i:t=Finis.
2r	.	.	2r	.	2r	.	2r	.	8r	.	8r	.	8r	.	8r	.	.	8r	8r	2r	2r
!	!	!	!	!	!	!	!	!	!	!	!	!	!	!	!	!	!LO:DY:a	!LO:N:vis=4	!	!	!
.	.	.	.	.	.	.	.	.	8A\|	Sal-	8e\	Sal-	8a\	Sal-	8cc#\	Sal-	ppp	8A/	8a\L	.	.
!	!	!	!	!	!	!	!	!	!	!	!	!	!	!	!	!	!	!LO:N:vis=4	!	!	!
.	.	.	.	.	.	.	.	.	8A\|	-ve	8e\	-ve.	8a\	-ve.	8cc#\	-ve.	.	8A/	8a\J	.	.
.	.	.	.	.	.	.	.	.	8r	.	8r	.	8r	.	8r	.	.	8r	8r	.	.
==	==	==	==	==	==	==	==	==	==	==	==	==	==	==	==	==	==	==	==	==	==
*-	*-	*-	*-	*-	*-	*-	*-	*-	*-	*-	*-	*-	*-	*-	*-	*-	*-	*-	*-	*-	*-
!!!system-decoration: [(g1)][(g2)][(g3)][(g4)]<s12>
!!!RDF**kern: | = vertical stroke
!!!RDF**kern: @ = marked note, color=grey
!!!RDF**dynam: p = "p:"
!!!RDF**dynam: f = "f:"
!!!ENC: Kamil Watkowski
!!!END: 2020-11-10
!!!ENC: Andrzej Kubiczek
!!!END: 2022-04-05
!!!YEC: Copyright 2022 Narodowy Instytut Fryderyka Chopina (https://polishscores.org)
!!!YEM: License CC-BY-4.0 (https://creativecommons.org/licenses/by/4.0)
